;FLAVOR:Marlin
;TIME:3746
;Filament used: 2.59164m
;Layer height: 0.2
;MINX:116.512
;MINY:116.516
;MINZ:0.2
;MAXX:189.477
;MAXY:229.459
;MAXZ:5.2
;Generated with Cura_SteamEngine 4.13.1
M140 S60
M105
M190 S60
M104 S215
M105
M109 S215
M82 ;absolute extrusion mode
M201 X500.00 Y500.00 Z100.00 E5000.00 ;Setup machine max acceleration
M203 X500.00 Y500.00 Z10.00 E50.00 ;Setup machine max feedrate
M204 P500.00 R1000.00 T500.00 ;Setup Print/Retract/Travel acceleration
M205 X8.00 Y8.00 Z0.40 E5.00 ;Setup Jerk
M220 S100 ;Reset Feedrate
M221 S100 ;Reset Flowrate

G28 ;Home
G29 ;BL autolevel
G92 E0 ;Reset Extruder
G1 Z2.0 F3000 ;Move Z Axis up
G1 X10.1 Y20 Z0.28 F5000.0 ;Move to start position
G1 X10.1 Y200.0 Z0.28 F1500.0 E15 ;Draw the first line
G1 X10.4 Y200.0 Z0.28 F5000.0 ;Move to side a little
G1 X10.4 Y20 Z0.28 F1500.0 E30 ;Draw the second line
G92 E0 ;Reset Extruder
G1 Z2.0 F3000 ;Move Z Axis up
G92 E0
G92 E0
G1 F2700 E-3
;LAYER_COUNT:25
;LAYER:0
M107
G1 F300 Z0.4
G0 F6000 X126.471 Y126.189 Z0.4
;TYPE:SKIRT
G1 F300 Z0.2
G1 F2700 E0
G1 F1200 X126.976 Y125.687 E0.02439
G1 X127.426 Y125.264 E0.04555
G1 X127.587 Y125.121 E0.05293
G1 X127.826 Y124.914 E0.06376
G1 X128.882 Y124.029 E0.11096
G1 X129.591 Y123.454 E0.14223
G1 X130.085 Y123.077 E0.16352
G1 X130.471 Y122.802 E0.17976
G1 X130.726 Y122.627 E0.19035
G1 X131.699 Y121.971 E0.23055
G1 X132.412 Y121.505 E0.25973
G1 X132.951 Y121.175 E0.28139
G1 X133.343 Y120.953 E0.29682
G1 X133.709 Y120.755 E0.31107
G1 X134.782 Y120.185 E0.3527
G1 X135.42 Y119.856 E0.37729
G1 X136.012 Y119.573 E0.39977
G1 X136.472 Y119.372 E0.41697
G1 X136.73 Y119.265 E0.42653
G1 X137.975 Y118.76 E0.47256
G1 X138.588 Y118.52 E0.49511
G1 X139.195 Y118.303 E0.5172
G1 X139.679 Y118.148 E0.53461
G1 X140.044 Y118.039 E0.54766
G1 X141.204 Y117.703 E0.58903
G1 X141.912 Y117.508 E0.61419
G1 X142.482 Y117.367 E0.6343
G1 X142.77 Y117.304 E0.6444
G1 X143.143 Y117.229 E0.65744
G1 X144.639 Y116.957 E0.70953
G1 X145.304 Y116.846 E0.73262
G1 X145.881 Y116.765 E0.75258
G1 X146.129 Y116.737 E0.76113
G1 X146.501 Y116.702 E0.77393
G1 X147.996 Y116.586 E0.8253
G1 X148.728 Y116.54 E0.85043
G1 X149.33 Y116.518 E0.87107
G1 X149.581 Y116.516 E0.87967
G1 X149.87 Y116.518 E0.88957
G1 X150.22 Y116.524 E0.90156
G1 X151.292 Y116.551 E0.93829
G1 X152.178 Y116.586 E0.96867
G1 X152.818 Y116.63 E0.99065
G1 X153.071 Y116.655 E0.99936
G1 X153.598 Y116.716 E1.01753
G1 X154.922 Y116.889 E1.06327
G1 X155.62 Y116.99 E1.08744
G1 X156.219 Y117.094 E1.10826
G1 X156.462 Y117.143 E1.11676
G1 X156.805 Y117.218 E1.12878
G1 X158.311 Y117.573 E1.18179
G1 X158.962 Y117.737 E1.20479
G1 X159.539 Y117.9 E1.22533
G1 X160.054 Y118.063 E1.24383
G1 X160.395 Y118.179 E1.25617
G1 X161.555 Y118.584 E1.29827
G1 X162.23 Y118.829 E1.32287
G1 X162.836 Y119.07 E1.34521
G1 X163.277 Y119.262 E1.36168
G1 X163.537 Y119.382 E1.37149
G1 X164.76 Y119.956 E1.41778
G1 X165.397 Y120.266 E1.44205
G1 X165.918 Y120.537 E1.46217
G1 X166.129 Y120.654 E1.47043
G1 X166.45 Y120.839 E1.48312
G1 X167.724 Y121.604 E1.53403
G1 X168.344 Y121.987 E1.559
G1 X168.913 Y122.363 E1.58236
G1 X169.27 Y122.618 E1.59739
G1 X169.536 Y122.815 E1.60873
G1 X170.583 Y123.603 E1.65362
G1 X171.112 Y124.011 E1.67651
G1 X171.586 Y124.398 E1.69747
G1 X171.792 Y124.576 E1.7068
G1 X172.056 Y124.811 E1.71891
G1 X173.041 Y125.719 E1.7648
G1 X173.189 Y125.858 E1.77176
G1 X173.719 Y126.365 E1.79688
G1 X174.117 Y126.766 E1.81624
G1 X174.283 Y126.942 E1.82453
G1 X174.535 Y127.218 E1.83733
G1 X175.431 Y128.235 E1.88376
G1 X175.991 Y128.889 E1.91326
G1 X176.391 Y129.384 E1.93506
G1 X176.685 Y129.775 E1.95182
G1 X176.893 Y130.063 E1.96399
G1 X177.625 Y131.094 E2.00731
G1 X178.018 Y131.662 E2.03097
G1 X178.383 Y132.225 E2.05396
G1 X178.629 Y132.636 E2.07036
G1 X178.789 Y132.913 E2.08132
G1 X179.431 Y134.05 E2.12606
G1 X179.76 Y134.65 E2.1495
G1 X180.052 Y135.222 E2.1715
G1 X180.244 Y135.63 E2.18695
G1 X180.392 Y135.96 E2.19934
G1 X180.898 Y137.122 E2.24275
G1 X181.19 Y137.816 E2.26855
G1 X181.332 Y138.17 E2.28161
G1 X181.445 Y138.469 E2.29256
G1 X181.574 Y138.828 E2.30563
G1 X181.669 Y139.104 E2.31563
G1 X181.941 Y139.929 E2.34539
G1 X182.022 Y140.185 E2.35459
G1 X182.118 Y140.502 E2.36594
G1 X182.202 Y140.796 E2.37641
G1 X182.358 Y141.368 E2.39672
G1 X182.43 Y141.643 E2.40646
G1 X182.48 Y141.847 E2.41366
G1 X182.542 Y142.114 E2.42305
G1 X182.636 Y142.546 E2.43819
G1 X182.883 Y143.735 E2.4798
G1 X183.024 Y144.462 E2.50517
G1 X183.125 Y145.075 E2.52645
G1 X183.181 Y145.509 E2.54144
G1 X183.225 Y145.9 E2.55492
G1 X183.357 Y147.187 E2.59924
G1 X183.416 Y147.849 E2.62201
G1 X183.448 Y148.298 E2.63743
G1 X183.465 Y148.636 E2.64902
G1 X183.476 Y148.959 E2.6601
G1 X183.481 Y149.211 E2.66873
G1 X183.49 Y150.025 E2.69662
G1 X183.49 Y150.291 E2.70573
G1 X183.485 Y150.672 E2.71878
G1 X183.477 Y150.979 E2.7293
G1 X183.428 Y152.174 E2.77028
G1 X183.338 Y153.815 E2.82658
G1 X183.271 Y156.341 E2.91315
G1 X183.276 Y158.871 E2.99982
G1 X183.35 Y161.384 E3.08595
G1 X183.496 Y163.872 E3.17133
G1 X183.718 Y166.427 E3.25918
G1 X184.003 Y168.896 E3.34433
G1 X184.361 Y171.38 E3.4303
G1 X184.79 Y173.86 E3.51653
G1 X185.294 Y176.35 E3.60356
G1 X185.856 Y178.778 E3.68894
G1 X186.501 Y181.239 E3.77609
G1 X187.206 Y183.644 E3.86195
G1 X187.727 Y185.283 E3.92087
G1 X187.86 Y185.688 E3.93547
G1 X187.944 Y185.955 E3.94506
G1 X188.023 Y186.218 E3.95447
G1 X188.123 Y186.574 E3.96713
G1 X188.509 Y188.04 E4.01907
G1 X188.678 Y188.721 E4.04311
G1 X188.811 Y189.327 E4.06436
G1 X188.859 Y189.581 E4.07322
G1 X188.916 Y189.915 E4.08482
G1 X189.155 Y191.441 E4.13774
G1 X189.252 Y192.131 E4.16161
G1 X189.32 Y192.731 E4.18229
G1 X189.342 Y192.99 E4.1912
G1 X189.366 Y193.339 E4.20318
G1 X189.437 Y194.68 E4.24919
G1 X189.471 Y195.554 E4.27915
G1 X189.477 Y196.191 E4.30098
G1 X189.472 Y196.442 E4.30958
G1 X189.46 Y196.779 E4.32113
G1 X189.38 Y198.332 E4.3744
G1 X189.335 Y199.011 E4.39771
G1 X189.277 Y199.627 E4.41891
G1 X189.246 Y199.879 E4.42761
G1 X189.177 Y200.371 E4.44463
G1 X188.989 Y201.586 E4.48675
G1 X188.843 Y202.443 E4.51653
G1 X188.73 Y203.012 E4.5364
G1 X188.679 Y203.237 E4.54431
G1 X188.592 Y203.592 E4.55683
G1 X188.195 Y205.103 E4.61035
G1 X188.016 Y205.746 E4.63321
G1 X187.846 Y206.3 E4.65307
G1 X187.763 Y206.547 E4.66199
G1 X187.606 Y206.988 E4.67803
G1 X187.136 Y208.236 E4.72371
G1 X186.837 Y208.999 E4.75179
G1 X186.608 Y209.537 E4.77182
G1 X186.486 Y209.804 E4.78188
G1 X186.325 Y210.142 E4.7947
G1 X185.637 Y211.518 E4.8474
G1 X185.333 Y212.105 E4.87005
G1 X185.032 Y212.648 E4.89132
G1 X184.903 Y212.866 E4.9
G1 X184.605 Y213.35 E4.91947
G1 X183.935 Y214.401 E4.96217
G1 X183.513 Y215.045 E4.98854
G1 X183.146 Y215.57 E5.01049
G1 X182.877 Y215.93 E5.02588
G1 X182.69 Y216.171 E5.03633
G1 X181.93 Y217.131 E5.07828
G1 X181.412 Y217.767 E5.10638
G1 X181.01 Y218.233 E5.12746
G1 X180.832 Y218.428 E5.13651
G1 X180.431 Y218.852 E5.1565
G1 X179.534 Y219.77 E5.20047
G1 X179.032 Y220.27 E5.22474
G1 X178.583 Y220.693 E5.24588
G1 X178.401 Y220.855 E5.25422
G1 X177.936 Y221.253 E5.27519
G1 X176.955 Y222.07 E5.31893
G1 X176.397 Y222.521 E5.34351
G1 X175.903 Y222.898 E5.3648
G1 X175.686 Y223.054 E5.37395
G1 X175.263 Y223.347 E5.39158
G1 X174.29 Y224.003 E5.43178
G1 X173.564 Y224.477 E5.46148
G1 X173.05 Y224.792 E5.48213
G1 X172.633 Y225.029 E5.49857
G1 X172.376 Y225.169 E5.50859
G1 X171.167 Y225.811 E5.55549
G1 X170.552 Y226.127 E5.57917
G1 X169.984 Y226.399 E5.60075
G1 X169.754 Y226.501 E5.60937
G1 X169.236 Y226.72 E5.62863
G1 X168.014 Y227.215 E5.6738
G1 X167.401 Y227.455 E5.69635
G1 X166.791 Y227.673 E5.71855
G1 X166.326 Y227.822 E5.73527
G1 X165.949 Y227.935 E5.74876
G1 X164.785 Y228.272 E5.79027
G1 X164.077 Y228.467 E5.81543
G1 X163.507 Y228.608 E5.83554
G1 X163.219 Y228.671 E5.84564
G1 X162.846 Y228.746 E5.85868
G1 X161.35 Y229.018 E5.91077
G1 X160.685 Y229.129 E5.93386
G1 X160.108 Y229.21 E5.95383
G1 X159.86 Y229.238 E5.96238
G1 X159.488 Y229.273 E5.97518
G1 X157.993 Y229.389 E6.02655
G1 X157.261 Y229.435 E6.05167
G1 X156.659 Y229.457 E6.07231
G1 X156.409 Y229.459 E6.08087
G1 X156.124 Y229.457 E6.09064
G1 X155.764 Y229.45 E6.10297
G1 X154.533 Y229.418 E6.14516
G1 X153.812 Y229.389 E6.16988
G1 X153.211 Y229.348 E6.19051
G1 X152.959 Y229.324 E6.19919
G1 X152.681 Y229.294 E6.20877
G1 X152.364 Y229.256 E6.2197
G1 X151.214 Y229.106 E6.25943
G1 X150.392 Y228.988 E6.28788
G1 X149.758 Y228.879 E6.30992
G1 X149.488 Y228.824 E6.31936
G1 X149.165 Y228.753 E6.33069
G1 X147.735 Y228.415 E6.38103
G1 X147.022 Y228.236 E6.40621
G1 X146.419 Y228.066 E6.42767
G1 X146.163 Y227.986 E6.43686
G1 X145.844 Y227.881 E6.44837
G1 X144.427 Y227.389 E6.49975
G1 X143.753 Y227.144 E6.52432
G1 X143.153 Y226.906 E6.54644
G1 X142.912 Y226.802 E6.55543
G1 X142.615 Y226.669 E6.56658
G1 X141.386 Y226.095 E6.61304
G1 X140.591 Y225.709 E6.64332
G1 X140.081 Y225.444 E6.66301
G1 X139.864 Y225.324 E6.6715
G1 X139.526 Y225.13 E6.68486
G1 X138.383 Y224.444 E6.73052
G1 X137.643 Y223.987 E6.76032
G1 X137.085 Y223.619 E6.78322
G1 X136.718 Y223.357 E6.79867
G1 X136.457 Y223.164 E6.80979
G1 X135.389 Y222.361 E6.85556
G1 X134.866 Y221.957 E6.8782
G1 X134.372 Y221.552 E6.90008
G1 X134.157 Y221.365 E6.90985
G1 X133.92 Y221.153 E6.92074
G1 X132.947 Y220.256 E6.96608
G1 X132.799 Y220.117 E6.97303
G1 X132.269 Y219.61 E6.99816
G1 X131.885 Y219.224 E7.01681
G1 X131.725 Y219.055 E7.02478
G1 X131.458 Y218.762 E7.03836
G1 X130.469 Y217.637 E7.08968
G1 X129.979 Y217.063 E7.11553
G1 X129.607 Y216.603 E7.1358
G1 X129.477 Y216.433 E7.14313
G1 X129.295 Y216.188 E7.15359
G1 X129.097 Y215.913 E7.1652
G1 X128.358 Y214.873 E7.2089
G1 X127.963 Y214.301 E7.23272
G1 X127.619 Y213.769 E7.25442
G1 X127.479 Y213.539 E7.26364
G1 X127.308 Y213.25 E7.27515
G1 X126.552 Y211.915 E7.32771
G1 X126.22 Y211.308 E7.35141
G1 X125.935 Y210.749 E7.3729
G1 X125.821 Y210.509 E7.38201
G1 X125.643 Y210.118 E7.39672
G1 X125.077 Y208.821 E7.4452
G1 X124.798 Y208.158 E7.46985
G1 X124.649 Y207.787 E7.48354
G1 X124.541 Y207.498 E7.49411
G1 X124.408 Y207.127 E7.50761
G1 X124.315 Y206.856 E7.51743
G1 X124.041 Y206.024 E7.54744
G1 X123.954 Y205.747 E7.55738
G1 X123.8 Y205.225 E7.57603
G1 X123.631 Y204.61 E7.59788
G1 X123.539 Y204.251 E7.61057
G1 X123.453 Y203.885 E7.62345
G1 X123.347 Y203.4 E7.64046
G1 X123.111 Y202.262 E7.68028
G1 X122.965 Y201.511 E7.70649
G1 X122.859 Y200.866 E7.72888
G1 X122.827 Y200.626 E7.73717
G1 X122.791 Y200.32 E7.74773
G1 X122.647 Y198.948 E7.79499
G1 X122.572 Y198.115 E7.82364
G1 X122.543 Y197.721 E7.83717
G1 X122.526 Y197.38 E7.84887
G1 X122.513 Y197.01 E7.86155
G1 X122.506 Y196.728 E7.87122
G1 X122.498 Y195.884 E7.90013
G1 X122.503 Y195.343 E7.91867
G1 X122.511 Y195.064 E7.92823
G1 X122.566 Y193.705 E7.97482
G1 X122.654 Y192.051 E8.03157
G1 X122.718 Y189.487 E8.11943
G1 X122.711 Y186.997 E8.20473
G1 X122.631 Y184.465 E8.29152
G1 X122.48 Y181.93 E8.37852
G1 X122.262 Y179.469 E8.46315
G1 X121.967 Y176.942 E8.55031
G1 X121.603 Y174.439 E8.63696
G1 X121.174 Y171.985 E8.72231
G1 X120.668 Y169.503 E8.80908
G1 X120.106 Y167.088 E8.89403
G1 X119.455 Y164.62 E8.98147
G1 X118.736 Y162.176 E9.06874
G1 X118.261 Y160.69 E9.12219
G1 X118.125 Y160.276 E9.13712
G1 X118.036 Y159.992 E9.14731
G1 X117.961 Y159.741 E9.15629
G1 X117.866 Y159.401 E9.16838
G1 X117.48 Y157.935 E9.22031
G1 X117.311 Y157.254 E9.24435
G1 X117.171 Y156.606 E9.26706
G1 X117.102 Y156.233 E9.28006
G1 X117.049 Y155.923 E9.29083
G1 X116.837 Y154.554 E9.33829
G1 X116.737 Y153.848 E9.36272
G1 X116.668 Y153.247 E9.38344
G1 X116.649 Y153.026 E9.39104
G1 X116.624 Y152.665 E9.40344
G1 X116.551 Y151.284 E9.45081
G1 X116.517 Y150.383 E9.4817
G1 X116.512 Y149.767 E9.5028
G1 X116.517 Y149.515 E9.51144
G1 X116.529 Y149.181 E9.52289
G1 X116.606 Y147.674 E9.57458
G1 X116.653 Y146.962 E9.59903
G1 X116.714 Y146.323 E9.62102
G1 X116.775 Y145.85 E9.63736
G1 X116.819 Y145.551 E9.64771
G1 X117.024 Y144.245 E9.693
G1 X117.147 Y143.528 E9.71792
G1 X117.269 Y142.923 E9.73906
G1 X117.332 Y142.649 E9.74869
G1 X117.41 Y142.33 E9.75994
G1 X117.748 Y141.038 E9.8057
G1 X117.976 Y140.217 E9.83489
G1 X118.147 Y139.661 E9.85481
G1 X118.23 Y139.415 E9.86371
G1 X118.383 Y138.987 E9.87928
G1 X118.852 Y137.741 E9.92489
G1 X119.15 Y136.981 E9.95285
G1 X119.395 Y136.406 E9.97427
G1 X119.619 Y135.926 E9.99241
G1 X119.745 Y135.669 E10.00222
G1 X120.351 Y134.46 E10.04855
G1 X120.66 Y133.863 E10.07158
G1 X120.985 Y133.278 E10.0945
G1 X121.216 Y132.896 E10.1098
G1 X121.394 Y132.61 E10.12134
G1 X122.054 Y131.574 E10.16342
G1 X122.476 Y130.93 E10.18979
G1 X122.841 Y130.407 E10.21164
G1 X122.993 Y130.202 E10.22039
G1 X123.198 Y129.934 E10.23195
G1 X124.053 Y128.852 E10.27919
G1 X124.577 Y128.208 E10.30763
G1 X124.981 Y127.739 E10.32884
G1 X125.171 Y127.531 E10.33849
G1 X125.405 Y127.284 E10.35014
G1 X126.471 Y126.189 E10.4025
G0 F6000 X126.753 Y126.472
G1 F1200 X127.258 Y125.97 E10.42689
G1 X127.692 Y125.563 E10.44727
G1 X127.853 Y125.42 E10.45465
G1 X128.083 Y125.221 E10.46507
G1 X129.139 Y124.336 E10.51227
G1 X129.843 Y123.765 E10.54332
G1 X130.319 Y123.402 E10.56383
G1 X130.698 Y123.132 E10.57977
G1 X130.949 Y122.959 E10.59022
G1 X132.058 Y122.213 E10.636
G1 X132.63 Y121.84 E10.6594
G1 X133.15 Y121.522 E10.68028
G1 X133.534 Y121.305 E10.69539
G1 X133.897 Y121.108 E10.70954
G1 X134.966 Y120.541 E10.75099
G1 X135.604 Y120.212 E10.77558
G1 X136.174 Y119.939 E10.79723
G1 X136.626 Y119.741 E10.81414
G1 X136.88 Y119.636 E10.82356
G1 X138.121 Y119.133 E10.86943
G1 X138.734 Y118.893 E10.89198
G1 X139.319 Y118.683 E10.91327
G1 X139.794 Y118.531 E10.93036
G1 X140.156 Y118.423 E10.9433
G1 X141.31 Y118.089 E10.98446
G1 X142.018 Y117.894 E11.00962
G1 X142.568 Y117.758 E11.02902
G1 X142.856 Y117.695 E11.03912
G1 X143.214 Y117.623 E11.05163
G1 X144.543 Y117.38 E11.09792
G1 X145.37 Y117.241 E11.12665
G1 X145.926 Y117.163 E11.14588
G1 X146.174 Y117.135 E11.15443
G1 X146.532 Y117.101 E11.16675
G1 X148.021 Y116.985 E11.21791
G1 X148.753 Y116.939 E11.24304
G1 X149.334 Y116.918 E11.26296
G1 X149.585 Y116.916 E11.27156
G1 X149.862 Y116.918 E11.28105
G1 X150.21 Y116.924 E11.29297
G1 X151.282 Y116.951 E11.32971
G1 X152.162 Y116.986 E11.35988
G1 X152.778 Y117.028 E11.38103
G1 X153.031 Y117.053 E11.38974
G1 X153.547 Y117.113 E11.40753
G1 X154.865 Y117.285 E11.45307
G1 X155.563 Y117.386 E11.47723
G1 X156.14 Y117.486 E11.49729
G1 X156.383 Y117.535 E11.50578
G1 X156.713 Y117.607 E11.51736
G1 X158.213 Y117.961 E11.57015
G1 X158.864 Y118.125 E11.59315
G1 X159.421 Y118.282 E11.61298
G1 X159.672 Y118.36 E11.62198
G1 X159.926 Y118.442 E11.63113
G1 X160.263 Y118.557 E11.64332
G1 X161.419 Y118.96 E11.68526
G1 X162.094 Y119.205 E11.70986
G1 X162.678 Y119.437 E11.73139
G1 X163.111 Y119.626 E11.74758
G1 X163.367 Y119.744 E11.75723
G1 X164.585 Y120.316 E11.80333
G1 X165.222 Y120.626 E11.8276
G1 X165.724 Y120.887 E11.84698
G1 X165.935 Y121.004 E11.85525
G1 X166.244 Y121.182 E11.86747
G1 X167.514 Y121.944 E11.9182
G1 X168.134 Y122.327 E11.94317
G1 X168.682 Y122.689 E11.96567
G1 X169.033 Y122.94 E11.98045
G1 X169.295 Y123.134 E11.99162
G1 X170.339 Y123.919 E12.03637
G1 X170.868 Y124.327 E12.05925
G1 X171.324 Y124.7 E12.07944
G1 X171.53 Y124.878 E12.08876
G1 X171.785 Y125.105 E12.10046
G1 X172.77 Y126.013 E12.14635
G1 X173.442 Y126.654 E12.17817
G1 X173.826 Y127.041 E12.19685
G1 X173.992 Y127.217 E12.20513
G1 X174.235 Y127.483 E12.21748
G1 X175.131 Y128.5 E12.26391
G1 X175.687 Y129.149 E12.29319
G1 X176.072 Y129.626 E12.31419
G1 X176.361 Y130.01 E12.33065
G1 X176.567 Y130.294 E12.34267
G1 X177.296 Y131.322 E12.38584
G1 X177.689 Y131.89 E12.4095
G1 X178.04 Y132.432 E12.43163
G1 X178.282 Y132.836 E12.44776
G1 X178.441 Y133.11 E12.45861
G1 X179.011 Y134.117 E12.49825
G1 X179.409 Y134.843 E12.52662
G1 X179.691 Y135.394 E12.54782
G1 X179.879 Y135.794 E12.56296
G1 X180.025 Y136.12 E12.5752
G1 X180.529 Y137.277 E12.61843
G1 X180.821 Y137.971 E12.64423
G1 X180.96 Y138.316 E12.65697
G1 X181.069 Y138.604 E12.66752
G1 X181.198 Y138.963 E12.68059
G1 X181.289 Y139.229 E12.69022
G1 X181.561 Y140.054 E12.71998
G1 X181.639 Y140.301 E12.72885
G1 X181.735 Y140.618 E12.7402
G1 X181.816 Y140.901 E12.75028
G1 X181.972 Y141.473 E12.77059
