;FLAVOR:Marlin
;TIME:16944
;Filament used: 11.8071m
;Layer height: 0.2
;MINX:86.368
;MINY:182.486
;MINZ:0.2
;MAXX:213.632
;MAXY:285.255
;MAXZ:25.2
;Generated with Cura_SteamEngine 4.13.1
M140 S60
M105
M190 S60
M104 S220
M105
M109 S220
M82 ;absolute extrusion mode
M201 X500.00 Y500.00 Z100.00 E5000.00 ;Setup machine max acceleration
M203 X500.00 Y500.00 Z10.00 E50.00 ;Setup machine max feedrate
M204 P500.00 R1000.00 T500.00 ;Setup Print/Retract/Travel acceleration
M205 X8.00 Y8.00 Z0.40 E5.00 ;Setup Jerk
M220 S100 ;Reset Feedrate
M221 S100 ;Reset Flowrate
M412 S0 ;

G28 ;Home
G29 ;Autolevel
G92 E0 ;Reset Extruder
G1 Z2.0 F3000 ;Move Z Axis up
G1 X10.1 Y20 Z0.28 F5000.0 ;Move to start position
G1 X10.1 Y200.0 Z0.28 F1500.0 E15 ;Draw the first line
G1 X10.4 Y200.0 Z0.28 F5000.0 ;Move to side a little
G1 X10.4 Y20 Z0.28 F1500.0 E30 ;Draw the second line
G92 E0 ;Reset Extruder
G1 Z2.0 F3000 ;Move Z Axis up
G92 E0
G92 E0
G1 F2700 E-3
;LAYER_COUNT:125
;LAYER:0
M107
G1 F300 Z0.4
G0 F6000 X92.607 Y183.583 Z0.4
;TYPE:SKIRT
G1 F300 Z0.2
G1 F2700 E0
G1 F1200 X93.469 Y183.213 E0.03214
G1 X94.359 Y182.917 E0.06427
G1 X95.271 Y182.699 E0.09639
G1 X96.198 Y182.558 E0.12851
G1 X97.069 Y182.499 E0.15842
G1 X97.39 Y182.49 E0.16942
G1 X97.698 Y182.486 E0.17997
G1 X201.925 Y182.486 E3.75058
G1 X202.781 Y182.497 E3.7799
G1 X203.717 Y182.551 E3.81202
G1 X204.645 Y182.683 E3.84413
G1 X205.559 Y182.895 E3.87628
G1 X206.451 Y183.184 E3.9084
G1 X207.316 Y183.547 E3.94053
G1 X208.146 Y183.983 E3.97265
G1 X208.937 Y184.488 E4.0048
G1 X209.681 Y185.059 E4.03693
G1 X210.374 Y185.691 E4.06906
G1 X211.011 Y186.379 E4.10118
G1 X211.586 Y187.12 E4.13331
G1 X212.097 Y187.906 E4.16543
G1 X212.539 Y188.734 E4.19759
G1 X212.908 Y189.596 E4.22971
G1 X213.203 Y190.486 E4.26183
G1 X213.421 Y191.398 E4.29395
G1 X213.561 Y192.326 E4.3261
G1 X213.619 Y193.187 E4.35567
G1 X213.628 Y193.507 E4.36663
G1 X213.632 Y193.816 E4.37722
G1 X213.631 Y273.655 E7.11234
G1 X213.622 Y274.382 E7.13725
G1 X213.571 Y275.319 E7.16939
G1 X213.439 Y276.247 E7.20151
G1 X213.23 Y277.161 E7.23363
G1 X212.943 Y278.054 E7.26576
G1 X212.581 Y278.92 E7.29791
G1 X212.147 Y279.751 E7.33003
G1 X211.643 Y280.542 E7.36216
G1 X211.074 Y281.287 E7.39428
G1 X210.443 Y281.982 E7.42644
G1 X209.756 Y282.62 E7.45855
G1 X209.017 Y283.197 E7.49067
G1 X208.231 Y283.709 E7.52281
G1 X207.405 Y284.152 E7.55492
G1 X206.543 Y284.524 E7.58708
G1 X205.654 Y284.82 E7.61918
G1 X204.742 Y285.04 E7.65132
G1 X203.815 Y285.181 E7.68344
G1 X202.931 Y285.242 E7.7138
G1 X202.61 Y285.251 E7.7248
G1 X202.302 Y285.255 E7.73535
G1 X97.933 Y285.254 E11.31082
G1 X97.235 Y285.245 E11.33473
G1 X96.299 Y285.193 E11.36685
G1 X95.37 Y285.061 E11.39899
G1 X94.456 Y284.851 E11.43112
G1 X93.563 Y284.564 E11.46325
G1 X92.698 Y284.201 E11.49539
G1 X91.867 Y283.767 E11.52751
G1 X91.076 Y283.263 E11.55964
G1 X90.331 Y282.693 E11.59177
G1 X89.637 Y282.062 E11.62391
G1 X89 Y281.375 E11.656
G1 X88.423 Y280.635 E11.68815
G1 X87.911 Y279.849 E11.72029
G1 X87.468 Y279.022 E11.75243
G1 X87.097 Y278.161 E11.78454
G1 X86.801 Y277.271 E11.81668
G1 X86.582 Y276.359 E11.84881
G1 X86.441 Y275.432 E11.88093
G1 X86.381 Y274.543 E11.91145
G1 X86.372 Y274.21 E11.92287
G1 X86.368 Y273.913 E11.93304
G1 X86.369 Y194.011 E14.67032
G1 X86.378 Y193.346 E14.6931
G1 X86.431 Y192.41 E14.72522
G1 X86.563 Y191.481 E14.75736
G1 X86.774 Y190.567 E14.7895
G1 X87.062 Y189.675 E14.82161
G1 X87.425 Y188.81 E14.85375
G1 X87.86 Y187.979 E14.88588
G1 X88.364 Y187.189 E14.91798
G1 X88.934 Y186.444 E14.95012
G1 X89.566 Y185.75 E14.98227
G1 X90.254 Y185.113 E15.0144
G1 X90.994 Y184.537 E15.04652
G1 X91.78 Y184.025 E15.07866
G1 X92.607 Y183.583 E15.11078
G0 F6000 X92.979 Y183.85
G1 F1200 X93.833 Y183.505 E15.14233
G1 X94.713 Y183.235 E15.17387
G1 X95.613 Y183.043 E15.20539
G1 X96.527 Y182.929 E15.23695
G1 X97.08 Y182.899 E15.25592
G1 X97.401 Y182.89 E15.26692
G1 X97.698 Y182.886 E15.2771
G1 X201.925 Y182.886 E18.8477
G1 X202.775 Y182.897 E18.87682
G1 X203.694 Y182.95 E18.90836
G1 X204.605 Y183.083 E18.9399
G1 X205.501 Y183.294 E18.97143
G1 X206.375 Y183.582 E19.00296
G1 X207.222 Y183.945 E19.03453
G1 X208.033 Y184.38 E19.06605
G1 X208.803 Y184.884 E19.09758
G1 X209.527 Y185.453 E19.12913
G1 X210.199 Y186.083 E19.16068
G1 X210.814 Y186.768 E19.19222
G1 X211.367 Y187.504 E19.22376
G1 X211.854 Y188.285 E19.25529
G1 X212.271 Y189.106 E19.28683
G1 X212.616 Y189.96 E19.31839
G1 X212.885 Y190.84 E19.34991
G1 X213.077 Y191.741 E19.38147
G1 X213.19 Y192.654 E19.41299
G1 X213.219 Y193.198 E19.43165
G1 X213.228 Y193.518 E19.44262
G1 X213.232 Y193.816 E19.45283
G1 X213.231 Y273.65 E22.18777
G1 X213.222 Y274.377 E22.21268
G1 X213.171 Y275.296 E22.24421
G1 X213.04 Y276.208 E22.27578
G1 X212.83 Y277.104 E22.3073
G1 X212.544 Y277.979 E22.33884
G1 X212.183 Y278.826 E22.37038
G1 X211.749 Y279.638 E22.40192
G1 X211.247 Y280.41 E22.43347
G1 X210.679 Y281.135 E22.46502
G1 X210.051 Y281.808 E22.49656
G1 X209.367 Y282.424 E22.52809
G1 X208.632 Y282.978 E22.55962
G1 X207.852 Y283.467 E22.59116
G1 X207.032 Y283.886 E22.62271
G1 X206.179 Y284.232 E22.65424
G1 X205.299 Y284.503 E22.68578
G1 X204.399 Y284.696 E22.71732
G1 X203.485 Y284.811 E22.74888
G1 X202.92 Y284.842 E22.76826
G1 X202.599 Y284.851 E22.77926
G1 X202.302 Y284.855 E22.78944
G1 X97.938 Y284.854 E26.36473
G1 X97.24 Y284.845 E26.38865
G1 X96.321 Y284.793 E26.42018
G1 X95.41 Y284.662 E26.45171
G1 X94.514 Y284.452 E26.48324
G1 X93.639 Y284.165 E26.51478
G1 X92.792 Y283.803 E26.54634
G1 X91.98 Y283.369 E26.57788
G1 X91.209 Y282.867 E26.6094
G1 X90.484 Y282.299 E26.64095
G1 X89.811 Y281.67 E26.67251
G1 X89.196 Y280.986 E26.70402
G1 X88.642 Y280.251 E26.73555
G1 X88.154 Y279.47 E26.7671
G1 X87.735 Y278.65 E26.79865
G1 X87.389 Y277.797 E26.83018
G1 X87.119 Y276.917 E26.86172
G1 X86.926 Y276.016 E26.89328
G1 X86.812 Y275.103 E26.9248
G1 X86.781 Y274.532 E26.94439
G1 X86.772 Y274.199 E26.9558
G1 X86.768 Y273.913 E26.9656
G1 X86.769 Y194.017 E29.70268
G1 X86.778 Y193.352 E29.72546
G1 X86.83 Y192.432 E29.75703
G1 X86.962 Y191.521 E29.78856
G1 X87.173 Y190.625 E29.8201
G1 X87.46 Y189.75 E29.85164
G1 X87.823 Y188.904 E29.88318
G1 X88.257 Y188.092 E29.91472
G1 X88.76 Y187.321 E29.94626
G1 X89.329 Y186.597 E29.97781
G1 X89.957 Y185.925 E30.00931
G1 X90.642 Y185.309 E30.04087
G1 X91.378 Y184.756 E30.07241
G1 X92.159 Y184.268 E30.10396
G1 X92.979 Y183.85 E30.13549
G0 F6000 X93.35 Y184.124
G1 F1200 X94.195 Y183.804 E30.16645
G1 X95.064 Y183.561 E30.19736
G1 X95.952 Y183.395 E30.22831
G1 X97.091 Y183.299 E30.26746
G1 X97.412 Y183.29 E30.27847
G1 X97.698 Y183.286 E30.28826
G1 X201.925 Y183.286 E33.85887
G1 X202.769 Y183.297 E33.88778
G1 X203.671 Y183.35 E33.91874
G1 X204.564 Y183.482 E33.94966
G1 X205.442 Y183.693 E33.9806
G1 X206.298 Y183.981 E34.01154
G1 X207.125 Y184.343 E34.04246
G1 X207.917 Y184.778 E34.07342
G1 X208.668 Y185.28 E34.10436
G1 X209.371 Y185.847 E34.13531
G1 X210.021 Y186.474 E34.16624
G1 X210.613 Y187.156 E34.19718
G1 X211.143 Y187.887 E34.22811
G1 X211.605 Y188.663 E34.25905
G1 X211.998 Y189.476 E34.28999
G1 X212.316 Y190.321 E34.32092
G1 X212.559 Y191.191 E34.35186
G1 X212.724 Y192.079 E34.38281
G1 X212.819 Y193.209 E34.42165
G1 X212.828 Y193.529 E34.43262
G1 X212.832 Y193.816 E34.44245
G1 X212.831 Y273.645 E37.17723
G1 X212.822 Y274.372 E37.20214
G1 X212.771 Y275.274 E37.23309
G1 X212.64 Y276.168 E37.26404
G1 X212.431 Y277.046 E37.29496
G1 X212.145 Y277.903 E37.32591
G1 X211.784 Y278.731 E37.35686
G1 X211.352 Y279.523 E37.38776
G1 X210.851 Y280.275 E37.41872
G1 X210.285 Y280.979 E37.44966
G1 X209.66 Y281.63 E37.48058
G1 X208.979 Y282.224 E37.51154
G1 X208.248 Y282.755 E37.54249
G1 X207.474 Y283.219 E37.5734
G1 X206.661 Y283.613 E37.60435
G1 X205.817 Y283.933 E37.63528
G1 X204.947 Y284.178 E37.66624
G1 X204.06 Y284.344 E37.69715
G1 X202.909 Y284.442 E37.73673
G1 X202.588 Y284.451 E37.74773
G1 X202.302 Y284.455 E37.75753
G1 X97.943 Y284.454 E41.33265
G1 X97.245 Y284.445 E41.35657
G1 X96.344 Y284.394 E41.38748
G1 X95.45 Y284.262 E41.41844
G1 X94.572 Y284.053 E41.44936
G1 X93.715 Y283.766 E41.48032
G1 X92.888 Y283.405 E41.51123
G1 X92.095 Y282.972 E41.54219
G1 X91.344 Y282.471 E41.57311
G1 X90.64 Y281.905 E41.60406
G1 X89.989 Y281.279 E41.635
G1 X89.396 Y280.598 E41.66593
G1 X88.866 Y279.867 E41.69687
G1 X88.402 Y279.092 E41.72781
G1 X88.008 Y278.279 E41.75876
G1 X87.688 Y277.435 E41.78968
G1 X87.444 Y276.565 E41.82064
G1 X87.278 Y275.677 E41.85159
G1 X87.181 Y274.522 E41.89129
G1 X87.172 Y274.189 E41.9027
G1 X87.168 Y273.913 E41.91216
G1 X87.169 Y194.022 E44.64906
G1 X87.178 Y193.357 E44.67185
G1 X87.23 Y192.455 E44.7028
G1 X87.362 Y191.562 E44.73372
G1 X87.572 Y190.684 E44.76465
G1 X87.859 Y189.827 E44.79561
G1 X88.221 Y189 E44.82654
G1 X88.654 Y188.208 E44.85746
G1 X89.156 Y187.457 E44.88841
G1 X89.723 Y186.753 E44.91937
G1 X90.349 Y186.103 E44.95029
G1 X91.03 Y185.51 E44.98122
G1 X91.762 Y184.98 E45.01218
G1 X92.537 Y184.517 E45.04311
G1 X93.35 Y184.124 E45.07405
G1 F2700 E42.07405
G1 F300 Z0.4
;MESH:pcbcasebot.STL
G0 F6000 X202.032 Y273.655 Z0.4
;TYPE:WALL-INNER
G1 F300 Z0.2
G1 F2700 E45.07405
G1 F1200 X97.968 Y273.655 E48.63906
G1 X97.968 Y194.086 E51.36493
G1 X202.032 Y194.086 E54.92995
G1 X202.032 Y273.655 E57.65582
G0 F6000 X202.432 Y274.055
;TYPE:WALL-OUTER
G1 F1200 X97.568 Y274.055 E61.24825
G1 X97.568 Y193.686 E64.00152
G1 X202.432 Y193.686 E67.59395
G1 X202.432 Y274.055 E70.34722
G0 F6000 X201.642 Y273.265
;TYPE:SKIN
G1 F1200 X98.358 Y273.265 E73.88552
G1 X98.358 Y194.476 E76.58467
G1 X201.642 Y194.476 E80.12297
G1 X201.642 Y273.265 E82.82212
G1 F2700 E79.82212
G1 F300 Z0.4
G0 F6000 X201.481 Y194.693 Z0.4
G1 F300 Z0.2
G1 F2700 E82.82212
G1 F1200 X201.424 Y194.636 E82.82488
G0 F6000 X200.858 Y194.636
G1 F1200 X201.481 Y195.259 E82.85506
G0 F6000 X201.481 Y195.824
G1 F1200 X200.292 Y194.636 E82.91264
G0 F6000 X199.727 Y194.636
G1 F1200 X201.481 Y196.39 E82.99762
G0 F6000 X201.481 Y196.956
G1 F1200 X199.161 Y194.636 E83.11002
G0 F6000 X198.595 Y194.636
G1 F1200 X201.481 Y197.521 E83.24981
G0 F6000 X201.481 Y198.087
G1 F1200 X198.03 Y194.636 E83.41701
G0 F6000 X197.464 Y194.636
G1 F1200 X201.481 Y198.653 E83.61162
G0 F6000 X201.481 Y199.218
G1 F1200 X196.898 Y194.636 E83.83364
G0 F6000 X196.333 Y194.636
G1 F1200 X201.481 Y199.784 E84.08305
G0 F6000 X201.481 Y200.35
G1 F1200 X195.767 Y194.636 E84.35988
G0 F6000 X195.201 Y194.636
G1 F1200 X201.481 Y200.915 E84.66411
G0 F6000 X201.481 Y201.481
G1 F1200 X194.636 Y194.636 E84.99574
G0 F6000 X194.07 Y194.636
G1 F1200 X201.481 Y202.047 E85.35478
G0 F6000 X201.481 Y202.612
G1 F1200 X193.504 Y194.636 E85.74123
G0 F6000 X192.939 Y194.636
G1 F1200 X201.481 Y203.178 E86.15507
G0 F6000 X201.481 Y203.744
G1 F1200 X192.373 Y194.636 E86.59634
G0 F6000 X191.807 Y194.636
G1 F1200 X201.481 Y204.31 E87.06503
G0 F6000 X201.481 Y204.875
G1 F1200 X191.241 Y194.636 E87.56111
G0 F6000 X190.676 Y194.636
G1 F1200 X201.481 Y205.441 E88.08459
G0 F6000 X201.481 Y206.007
G1 F1200 X190.11 Y194.636 E88.63549
G0 F6000 X189.544 Y194.636
G1 F1200 X201.481 Y206.572 E89.21379
G0 F6000 X201.481 Y207.138
G1 F1200 X188.979 Y194.636 E89.81949
G0 F6000 X188.413 Y194.636
G1 F1200 X201.481 Y207.704 E90.45261
G0 F6000 X201.481 Y208.269
G1 F1200 X187.847 Y194.636 E91.11313
G0 F6000 X187.282 Y194.636
G1 F1200 X201.481 Y208.835 E91.80104
G0 F6000 X201.481 Y209.401
G1 F1200 X186.716 Y194.636 E92.51637
G0 F6000 X186.15 Y194.636
G1 F1200 X201.481 Y209.966 E93.25911
G0 F6000 X201.481 Y210.532
G1 F1200 X185.585 Y194.636 E94.02924
G0 F6000 X185.019 Y194.636
G1 F1200 X201.481 Y211.098 E94.82679
G0 F6000 X201.481 Y211.663
G1 F1200 X184.453 Y194.636 E95.65174
G0 F6000 X183.888 Y194.636
G1 F1200 X201.481 Y212.229 E96.50408
G0 F6000 X201.481 Y212.795
G1 F1200 X183.322 Y194.636 E97.38385
G0 F6000 X182.756 Y194.636
G1 F1200 X201.481 Y213.36 E98.29102
G0 F6000 X201.481 Y213.926
G1 F1200 X182.191 Y194.636 E99.22558
G0 F6000 X181.625 Y194.636
G1 F1200 X201.481 Y214.492 E100.18756
G0 F6000 X201.481 Y215.058
G1 F1200 X181.059 Y194.636 E101.17697
G0 F6000 X180.493 Y194.636
G1 F1200 X201.481 Y215.623 E102.19377
G0 F6000 X201.481 Y216.189
G1 F1200 X179.928 Y194.636 E103.23797
G0 F6000 X179.362 Y194.636
G1 F1200 X201.481 Y216.755 E104.3096
G0 F6000 X201.481 Y217.32
G1 F1200 X178.796 Y194.636 E105.40862
G0 F6000 X178.231 Y194.636
G1 F1200 X201.481 Y217.886 E106.53503
G0 F6000 X201.481 Y218.452
G1 F1200 X177.665 Y194.636 E107.68887
G0 F6000 X177.099 Y194.636
G1 F1200 X201.481 Y219.017 E108.87011
G0 F6000 X201.481 Y219.583
G1 F1200 X176.534 Y194.636 E110.07874
G0 F6000 X175.968 Y194.636
G1 F1200 X201.481 Y220.149 E111.3148
G0 F6000 X201.481 Y220.714
G1 F1200 X175.402 Y194.636 E112.57825
G0 F6000 X174.837 Y194.636
G1 F1200 X201.481 Y221.28 E113.8691
G0 F6000 X201.481 Y221.846
G1 F1200 X174.271 Y194.636 E115.18737
G0 F6000 X173.705 Y194.636
G1 F1200 X201.481 Y222.411 E116.53304
G0 F6000 X201.481 Y222.977
G1 F1200 X173.14 Y194.636 E117.9061
G0 F6000 X172.574 Y194.636
G1 F1200 X201.481 Y223.543 E119.30659
G0 F6000 X201.481 Y224.109
G1 F1200 X172.008 Y194.636 E120.7345
G0 F6000 X171.442 Y194.636
G1 F1200 X201.481 Y224.674 E122.18981
G0 F6000 X201.481 Y225.24
G1 F1200 X170.877 Y194.636 E123.67251
G0 F6000 X170.311 Y194.636
G1 F1200 X201.481 Y225.806 E125.18264
G0 F6000 X201.481 Y226.371
G1 F1200 X169.745 Y194.636 E126.72016
G0 F6000 X169.18 Y194.636
G1 F1200 X201.481 Y226.937 E128.28508
G0 F6000 X201.481 Y227.503
G1 F1200 X168.614 Y194.636 E129.87742
G0 F6000 X168.048 Y194.636
G1 F1200 X201.481 Y228.068 E131.49716
G0 F6000 X201.481 Y228.634
G1 F1200 X167.483 Y194.636 E133.1443
G0 F6000 X166.917 Y194.636
G1 F1200 X201.481 Y229.2 E134.81886
G0 F6000 X201.481 Y229.765
G1 F1200 X166.351 Y194.636 E136.52081
G0 F6000 X165.786 Y194.636
G1 F1200 X201.481 Y230.331 E138.25016
G0 F6000 X201.481 Y230.897
G1 F1200 X165.22 Y194.636 E140.00694
G0 F6000 X164.654 Y194.636
G1 F1200 X201.481 Y231.462 E141.79111
G0 F6000 X201.481 Y232.028
G1 F1200 X164.089 Y194.636 E143.60268
G0 F6000 X163.523 Y194.636
G1 F1200 X201.481 Y232.594 E145.44167
G0 F6000 X201.481 Y233.159
G1 F1200 X162.957 Y194.636 E147.30806
G0 F6000 X162.392 Y194.636
G1 F1200 X201.481 Y233.725 E149.20184
G0 F6000 X201.481 Y234.291
G1 F1200 X161.826 Y194.636 E151.12305
G0 F6000 X161.26 Y194.636
G1 F1200 X201.481 Y234.857 E153.07168
G0 F6000 X201.481 Y235.422
G1 F1200 X160.694 Y194.636 E155.04771
G0 F6000 X160.129 Y194.636
G1 F1200 X201.481 Y235.988 E157.05113
G0 F6000 X201.481 Y236.554
G1 F1200 X159.563 Y194.636 E159.08197
G0 F6000 X158.997 Y194.636
G1 F1200 X201.481 Y237.119 E161.14022
G0 F6000 X201.481 Y237.685
G1 F1200 X158.432 Y194.636 E163.22586
G0 F6000 X157.866 Y194.636
G1 F1200 X201.481 Y238.251 E165.33892
G0 F6000 X201.481 Y238.816
G1 F1200 X157.3 Y194.636 E167.47938
G0 F6000 X156.735 Y194.636
G1 F1200 X201.481 Y239.382 E169.64723
G0 F6000 X201.481 Y239.948
G1 F1200 X156.169 Y194.636 E171.84251
G0 F6000 X155.603 Y194.636
G1 F1200 X201.481 Y240.513 E174.06518
G0 F6000 X201.481 Y241.079
G1 F1200 X155.038 Y194.636 E176.31526
G0 F6000 X154.472 Y194.636
G1 F1200 X201.481 Y241.645 E178.59275
G0 F6000 X201.481 Y242.21
G1 F1200 X153.906 Y194.636 E180.89764
G0 F6000 X153.341 Y194.636
G1 F1200 X201.481 Y242.776 E183.22993
G0 F6000 X201.481 Y243.342
G1 F1200 X152.775 Y194.636 E185.58964
G0 F6000 X152.209 Y194.636
G1 F1200 X201.481 Y243.907 E187.97675
G0 F6000 X201.481 Y244.473
G1 F1200 X151.643 Y194.636 E190.39128
G0 F6000 X151.078 Y194.636
G1 F1200 X201.481 Y245.039 E192.83321
G0 F6000 X201.481 Y245.605
G1 F1200 X150.512 Y194.636 E195.30255
G0 F6000 X149.946 Y194.636
G1 F1200 X201.481 Y246.17 E197.7993
G0 F6000 X201.481 Y246.736
G1 F1200 X149.381 Y194.636 E200.32344
G0 F6000 X148.815 Y194.636
G1 F1200 X201.481 Y247.302 E202.87501
G0 F6000 X201.481 Y247.867
G1 F1200 X148.249 Y194.636 E205.45397
G0 F6000 X147.684 Y194.636
G1 F1200 X201.481 Y248.433 E208.06033
G0 F6000 X201.481 Y248.999
G1 F1200 X147.118 Y194.636 E210.69411
G0 F6000 X146.552 Y194.636
G1 F1200 X201.481 Y249.564 E213.35529
G0 F6000 X201.481 Y250.13
G1 F1200 X145.987 Y194.636 E216.04386
G0 F6000 X145.421 Y194.636
