;FLAVOR:Marlin
;TIME:7384
;Filament used: 5.1021m
;Layer height: 0.2
;MINX:114.017
;MINY:193.939
;MINZ:0.2
;MAXX:246.456
;MAXY:275.989
;MAXZ:7.2
;Generated with Cura_SteamEngine 4.13.1
M140 S60
M105
M190 S60
M104 S220
M105
M109 S220
M82 ;absolute extrusion mode
M201 X500.00 Y500.00 Z100.00 E5000.00 ;Setup machine max acceleration
M203 X500.00 Y500.00 Z10.00 E50.00 ;Setup machine max feedrate
M204 P500.00 R1000.00 T500.00 ;Setup Print/Retract/Travel acceleration
M205 X8.00 Y8.00 Z0.40 E5.00 ;Setup Jerk
M220 S100 ;Reset Feedrate
M221 S100 ;Reset Flowrate
M412 S0 ;

G28 ;Home
G29 ;Autolevel
G92 E0 ;Reset Extruder
G1 Z2.0 F3000 ;Move Z Axis up
G1 X10.1 Y20 Z0.28 F5000.0 ;Move to start position
G1 X10.1 Y200.0 Z0.28 F1500.0 E15 ;Draw the first line
G1 X10.4 Y200.0 Z0.28 F5000.0 ;Move to side a little
G1 X10.4 Y20 Z0.28 F1500.0 E30 ;Draw the second line
G92 E0 ;Reset Extruder
G1 Z2.0 F3000 ;Move Z Axis up
G92 E0
G92 E0
G1 F2700 E-3
;LAYER_COUNT:35
;LAYER:0
M107
G1 F300 Z0.4
G0 F6000 X130.474 Y209.772 Z0.4
;TYPE:SKIRT
G1 F300 Z0.2
G1 F2700 E0
G1 F1200 X130.738 Y209.61 E0.01041
G1 X131.929 Y208.894 E0.05709
G1 X132.736 Y208.425 E0.08844
G1 X133.278 Y208.131 E0.10916
G1 X133.693 Y207.923 E0.12475
G1 X133.954 Y207.798 E0.13447
G1 X135.278 Y207.178 E0.18358
G1 X136.075 Y206.819 E0.21295
G1 X136.604 Y206.598 E0.23221
G1 X136.831 Y206.51 E0.24038
G1 X137.18 Y206.381 E0.25288
G1 X138.646 Y205.869 E0.30505
G1 X139.567 Y205.563 E0.33765
G1 X140.143 Y205.39 E0.35785
G1 X140.586 Y205.273 E0.37324
G1 X140.944 Y205.185 E0.38563
G1 X142.479 Y204.824 E0.4386
G1 X143.184 Y204.67 E0.46284
G1 X143.748 Y204.562 E0.48213
G1 X143.955 Y204.528 E0.48918
G1 X144.317 Y204.475 E0.50147
G1 X145.929 Y204.265 E0.55608
G1 X146.802 Y204.164 E0.5856
G1 X147.428 Y204.11 E0.60671
G1 X147.708 Y204.094 E0.61613
G1 X148.041 Y204.08 E0.62733
G1 X149.764 Y204.035 E0.68523
G1 X150.483 Y204.026 E0.70938
G1 X151.13 Y204.037 E0.73112
G1 X151.617 Y204.062 E0.7475
G1 X152.014 Y204.089 E0.76087
G1 X153.31 Y204.19 E0.80453
G1 X155.916 Y204.355 E0.89225
G1 X158.403 Y204.442 E0.97585
G1 X160.962 Y204.459 E1.06181
G1 X163.449 Y204.405 E1.14538
G1 X165.949 Y204.281 E1.22946
G1 X168.505 Y204.081 E1.31559
G1 X170.96 Y203.818 E1.39853
G1 X173.481 Y203.478 E1.48399
G1 X175.964 Y203.069 E1.56852
G1 X178.41 Y202.595 E1.65222
G1 X180.868 Y202.047 E1.73682
G1 X183.337 Y201.423 E1.82236
G1 X185.757 Y200.737 E1.90686
G1 X188.134 Y199.991 E1.99055
G1 X190.544 Y199.158 E2.07621
G1 X192.874 Y198.278 E2.15988
G1 X195.269 Y197.296 E2.24683
G1 X195.522 Y197.188 E2.25607
G1 X196.143 Y196.929 E2.27868
G1 X197.623 Y196.328 E2.33234
G1 X198.268 Y196.076 E2.3556
G1 X198.838 Y195.871 E2.37595
G1 X199.115 Y195.78 E2.38574
G1 X199.468 Y195.671 E2.39815
G1 X201.145 Y195.183 E2.45682
G1 X201.831 Y194.994 E2.48073
G1 X202.435 Y194.846 E2.50162
G1 X202.873 Y194.754 E2.51665
G1 X203.253 Y194.681 E2.52965
G1 X204.763 Y194.408 E2.5812
G1 X205.46 Y194.291 E2.60494
G1 X206.088 Y194.204 E2.62624
G1 X206.574 Y194.153 E2.64265
G1 X206.854 Y194.129 E2.65209
G1 X208.445 Y194.007 E2.7057
G1 X209.158 Y193.962 E2.7297
G1 X209.812 Y193.94 E2.75168
G1 X210.092 Y193.939 E2.76108
G1 X210.428 Y193.942 E2.77237
G1 X212.121 Y193.986 E2.82926
G1 X212.894 Y194.017 E2.85525
G1 X213.467 Y194.055 E2.87454
G1 X213.629 Y194.07 E2.88001
G1 X213.919 Y194.101 E2.8898
G1 X214.419 Y194.161 E2.90672
G1 X215.885 Y194.354 E2.95639
G1 X216.544 Y194.45 E2.97876
G1 X217.177 Y194.561 E3.00035
G1 X217.546 Y194.637 E3.01301
G1 X217.853 Y194.705 E3.02357
G1 X219.447 Y195.082 E3.0786
G1 X220.152 Y195.259 E3.10301
G1 X220.737 Y195.424 E3.12343
G1 X221.219 Y195.576 E3.14041
G1 X221.535 Y195.683 E3.15162
G1 X222.991 Y196.191 E3.20342
G1 X223.655 Y196.432 E3.22715
G1 X224.271 Y196.677 E3.24942
G1 X224.539 Y196.793 E3.25923
G1 X224.826 Y196.922 E3.2698
G1 X226.412 Y197.664 E3.32862
G1 X227.029 Y197.963 E3.35165
G1 X227.621 Y198.272 E3.37409
G1 X227.987 Y198.48 E3.38823
G1 X228.317 Y198.674 E3.40109
G1 X229.614 Y199.454 E3.45193
G1 X230.218 Y199.827 E3.47578
G1 X230.785 Y200.202 E3.49861
G1 X231.14 Y200.455 E3.51326
G1 X231.431 Y200.669 E3.52539
G1 X232.634 Y201.573 E3.57594
G1 X233.229 Y202.033 E3.6012
G1 X233.691 Y202.411 E3.62126
G1 X233.889 Y202.582 E3.63005
G1 X234.165 Y202.829 E3.64249
G1 X235.46 Y204.027 E3.70175
G1 X235.964 Y204.507 E3.72513
G1 X236.395 Y204.942 E3.7457
G1 X236.738 Y205.31 E3.7626
G1 X236.97 Y205.568 E3.77426
G1 X237.895 Y206.62 E3.82131
G1 X238.436 Y207.252 E3.84926
G1 X238.852 Y207.768 E3.87153
G1 X239.134 Y208.145 E3.88734
G1 X239.36 Y208.457 E3.90028
G1 X240.213 Y209.659 E3.9498
G1 X240.619 Y210.246 E3.97377
G1 X240.975 Y210.795 E3.99575
G1 X241.114 Y211.024 E4.00475
G1 X241.278 Y211.303 E4.01562
G1 X242.147 Y212.837 E4.07485
G1 X242.476 Y213.436 E4.09781
G1 X242.772 Y214.014 E4.11962
G1 X242.885 Y214.252 E4.12847
G1 X243.108 Y214.745 E4.14665
G1 X243.678 Y216.049 E4.19446
G1 X244.017 Y216.856 E4.22386
G1 X244.215 Y217.363 E4.24214
G1 X244.305 Y217.612 E4.25104
G1 X244.435 Y217.993 E4.26456
G1 X244.921 Y219.509 E4.31804
G1 X245.187 Y220.384 E4.34876
G1 X245.358 Y221.018 E4.37082
G1 X245.445 Y221.383 E4.38343
G1 X245.513 Y221.684 E4.39379
G1 X245.854 Y223.324 E4.45006
G1 X245.98 Y223.974 E4.4723
G1 X246.082 Y224.598 E4.49354
G1 X246.142 Y225.057 E4.50909
G1 X246.186 Y225.454 E4.52251
G1 X246.336 Y226.925 E4.57218
G1 X246.403 Y227.676 E4.59751
G1 X246.441 Y228.3 E4.61851
G1 X246.454 Y228.767 E4.63421
G1 X246.456 Y228.979 E4.64133
G1 X246.455 Y230.66 E4.6978
G1 X246.445 Y231.357 E4.72121
G1 X246.42 Y231.96 E4.74149
G1 X246.401 Y232.234 E4.75072
G1 X246.37 Y232.59 E4.76272
G1 X246.191 Y234.331 E4.82151
G1 X246.107 Y235.048 E4.84576
G1 X246.019 Y235.655 E4.86637
G1 X245.976 Y235.902 E4.87479
G1 X245.908 Y236.259 E4.887
G1 X245.579 Y237.838 E4.94118
G1 X245.393 Y238.676 E4.97002
G1 X245.227 Y239.328 E4.99262
G1 X245.109 Y239.733 E5.00679
G1 X244.997 Y240.093 E5.01945
G1 X244.523 Y241.572 E5.07163
G1 X244.302 Y242.231 E5.09497
G1 X244.103 Y242.778 E5.11453
G1 X244.001 Y243.036 E5.12385
G1 X243.854 Y243.39 E5.13672
G1 X243.205 Y244.878 E5.19126
G1 X242.854 Y245.651 E5.21978
G1 X242.58 Y246.212 E5.24075
G1 X242.367 Y246.614 E5.25603
G1 X242.2 Y246.915 E5.2676
G1 X241.446 Y248.246 E5.31898
G1 X241.061 Y248.902 E5.34454
G1 X240.746 Y249.407 E5.36453
G1 X240.599 Y249.629 E5.37347
G1 X240.329 Y250.022 E5.38949
G1 X239.389 Y251.344 E5.44398
G1 X238.948 Y251.946 E5.46905
G1 X238.582 Y252.417 E5.48909
G1 X238.275 Y252.786 E5.50521
G1 X238.018 Y253.082 E5.51838
G1 X237.06 Y254.171 E5.56711
G1 X236.555 Y254.731 E5.59244
G1 X236.09 Y255.215 E5.61498
G1 X235.876 Y255.425 E5.62506
G1 X235.645 Y255.646 E5.6358
G1 X234.359 Y256.835 E5.69463
G1 X233.869 Y257.276 E5.71678
G1 X233.413 Y257.664 E5.73689
G1 X233.181 Y257.851 E5.7469
G1 X232.89 Y258.078 E5.7593
G1 X231.48 Y259.137 E5.81853
G1 X230.901 Y259.558 E5.84258
G1 X230.406 Y259.898 E5.86276
G1 X230.222 Y260.017 E5.87012
G1 X229.818 Y260.268 E5.88609
G1 X228.544 Y261.035 E5.93605
G1 X227.741 Y261.502 E5.96725
G1 X227.197 Y261.797 E5.98804
G1 X226.78 Y262.006 E6.00371
G1 X226.519 Y262.131 E6.01343
G1 X225.195 Y262.751 E6.06254
G1 X224.398 Y263.11 E6.09191
G1 X223.845 Y263.341 E6.11204
G1 X223.619 Y263.428 E6.12018
G1 X223.151 Y263.598 E6.1369
G1 X221.625 Y264.128 E6.19117
G1 X220.927 Y264.359 E6.21587
G1 X220.335 Y264.536 E6.23662
G1 X219.866 Y264.66 E6.25292
G1 X219.519 Y264.745 E6.26492
G1 X218.034 Y265.095 E6.31617
G1 X217.371 Y265.242 E6.33899
G1 X216.759 Y265.36 E6.35992
G1 X216.489 Y265.404 E6.36911
G1 X216.231 Y265.443 E6.37788
G1 X215.895 Y265.489 E6.38927
G1 X214.389 Y265.683 E6.44028
G1 X213.69 Y265.764 E6.46392
G1 X213.05 Y265.819 E6.4855
G1 X212.56 Y265.845 E6.50198
G1 X212.245 Y265.856 E6.51257
G1 X210.817 Y265.892 E6.56055
G1 X209.94 Y265.901 E6.59002
G1 X209.375 Y265.893 E6.609
G1 X209.134 Y265.883 E6.6171
G1 X208.756 Y265.86 E6.62982
G1 X207.127 Y265.736 E6.6847
G1 X204.546 Y265.573 E6.77158
G1 X201.998 Y265.486 E6.85722
G1 X199.47 Y265.47 E6.94215
G1 X196.978 Y265.525 E7.02588
G1 X194.458 Y265.652 E7.11064
G1 X191.949 Y265.85 E7.19519
G1 X189.458 Y266.117 E7.27935
G1 X186.947 Y266.459 E7.36448
G1 X184.456 Y266.87 E7.44929
G1 X181.998 Y267.347 E7.5334
G1 X179.528 Y267.899 E7.61842
G1 X177.139 Y268.504 E7.70121
G1 X174.69 Y269.2 E7.78673
G1 X172.269 Y269.962 E7.872
G1 X169.892 Y270.785 E7.9565
G1 X167.545 Y271.672 E8.04078
G1 X165.193 Y272.638 E8.1262
G1 X164.99 Y272.725 E8.13361
G1 X164.265 Y273.026 E8.15998
G1 X162.842 Y273.604 E8.21158
G1 X162.227 Y273.845 E8.23377
G1 X161.646 Y274.054 E8.25451
G1 X161.375 Y274.143 E8.26409
G1 X161.027 Y274.251 E8.27633
G1 X159.383 Y274.73 E8.33386
G1 X158.64 Y274.935 E8.35975
G1 X158.079 Y275.074 E8.37916
G1 X157.861 Y275.122 E8.38666
G1 X157.476 Y275.199 E8.39985
G1 X155.736 Y275.517 E8.45927
G1 X155.061 Y275.632 E8.48227
G1 X154.392 Y275.725 E8.50496
G1 X153.899 Y275.776 E8.52161
G1 X153.619 Y275.8 E8.53105
G1 X152.028 Y275.922 E8.58466
G1 X151.315 Y275.967 E8.60865
G1 X150.665 Y275.989 E8.6305
G1 X150.21 Y275.989 E8.64579
G1 X149.863 Y275.983 E8.65745
G1 X148.697 Y275.952 E8.69663
G1 X148.497 Y275.945 E8.70335
G1 X147.536 Y275.902 E8.73567
G1 X146.813 Y275.846 E8.76003
G1 X145.823 Y275.736 E8.79349
G1 X144.748 Y275.597 E8.8299
G1 X143.927 Y275.479 E8.85776
G1 X143.296 Y275.368 E8.87929
G1 X142.927 Y275.292 E8.89194
G1 X142.62 Y275.224 E8.90251
G1 X141.026 Y274.847 E8.95753
G1 X140.321 Y274.67 E8.98195
G1 X139.736 Y274.505 E9.00237
G1 X139.254 Y274.353 E9.01934
G1 X138.938 Y274.246 E9.03055
G1 X137.482 Y273.738 E9.08235
G1 X136.818 Y273.497 E9.10608
G1 X136.202 Y273.252 E9.12835
G1 X135.934 Y273.136 E9.13816
G1 X135.647 Y273.007 E9.14873
G1 X134.061 Y272.265 E9.20755
G1 X133.442 Y271.965 E9.23066
G1 X132.846 Y271.653 E9.25326
G1 X132.486 Y271.449 E9.26716
G1 X132.156 Y271.255 E9.28002
G1 X130.859 Y270.475 E9.33086
G1 X130.255 Y270.102 E9.35471
G1 X129.688 Y269.727 E9.37754
G1 X129.333 Y269.474 E9.39219
G1 X129.042 Y269.26 E9.40432
G1 X127.837 Y268.354 E9.45497
G1 X127.241 Y267.893 E9.48028
G1 X126.784 Y267.52 E9.50009
G1 X126.587 Y267.35 E9.50884
G1 X126.308 Y267.1 E9.52142
G1 X125.012 Y265.901 E9.58073
G1 X124.507 Y265.42 E9.60416
G1 X124.075 Y264.985 E9.62475
G1 X123.735 Y264.62 E9.64151
G1 X123.512 Y264.371 E9.65274
G1 X122.594 Y263.327 E9.69944
G1 X122.004 Y262.636 E9.72996
G1 X121.629 Y262.171 E9.75003
G1 X121.504 Y262.007 E9.75696
G1 X121.181 Y261.566 E9.77532
G1 X120.339 Y260.382 E9.82412
G1 X119.852 Y259.679 E9.85285
G1 X119.526 Y259.162 E9.87339
G1 X119.52 Y259.166 E9.87363
G1 X119.388 Y258.951 E9.8821
G1 X119.244 Y258.71 E9.89153
G1 X119.094 Y258.449 E9.90165
G1 X118.322 Y257.084 E9.95433
G1 X117.993 Y256.484 E9.97731
G1 X117.697 Y255.904 E9.99919
G1 X117.492 Y255.468 E10.01537
G1 X117.352 Y255.156 E10.02686
G1 X116.742 Y253.755 E10.07819
G1 X116.463 Y253.094 E10.10229
G1 X116.217 Y252.457 E10.12523
G1 X116.13 Y252.209 E10.13406
G1 X116.035 Y251.925 E10.14412
G1 X115.493 Y250.23 E10.2039
G1 X115.274 Y249.502 E10.22944
G1 X115.116 Y248.917 E10.24979
G1 X115.012 Y248.476 E10.26501
G1 X114.944 Y248.164 E10.27574
G1 X114.621 Y246.615 E10.3289
G1 X114.488 Y245.926 E10.35247
G1 X114.388 Y245.315 E10.37327
G1 X114.329 Y244.857 E10.38878
G1 X114.286 Y244.467 E10.40196
G1 X114.132 Y242.964 E10.45271
G1 X114.07 Y242.266 E10.47625
G1 X114.032 Y241.639 E10.49736
G1 X114.024 Y241.385 E10.50589
G1 X114.017 Y240.849 E10.5239
G1 X114.018 Y239.269 E10.57698
G1 X114.028 Y238.572 E10.60039
G1 X114.053 Y237.969 E10.62067
G1 X114.072 Y237.695 E10.62989
G1 X114.103 Y237.336 E10.642
G1 X114.283 Y235.59 E10.70096
G1 X114.365 Y234.886 E10.72477
G1 X114.458 Y234.247 E10.74646
G1 X114.544 Y233.781 E10.76238
G1 X114.61 Y233.451 E10.77369
G1 X114.9 Y232.061 E10.82139
G1 X115.095 Y231.192 E10.8513
G1 X115.251 Y230.583 E10.87242
G1 X115.372 Y230.17 E10.88688
G1 X115.466 Y229.865 E10.8976
G1 X115.951 Y228.35 E10.95104
G1 X116.174 Y227.686 E10.97457
G1 X116.378 Y227.13 E10.99446
G1 X116.48 Y226.873 E11.00375
G1 X116.623 Y226.529 E11.01627
G1 X117.319 Y224.938 E11.0746
G1 X117.621 Y224.273 E11.09914
G1 X117.881 Y223.74 E11.11906
G1 X117.981 Y223.548 E11.12633
G1 X118.125 Y223.28 E11.13655
G1 X118.291 Y222.982 E11.14801
G1 X119.044 Y221.654 E11.19929
G1 X119.412 Y221.027 E11.22372
G1 X119.727 Y220.522 E11.24371
G1 X119.874 Y220.3 E11.25265
G1 X120.144 Y219.907 E11.26867
G1 X121.084 Y218.585 E11.32316
G1 X121.525 Y217.983 E11.34823
G1 X121.906 Y217.493 E11.36908
G1 X122.203 Y217.137 E11.38466
G1 X122.417 Y216.89 E11.39563
G1 X123.454 Y215.712 E11.44836
G1 X123.949 Y215.165 E11.47314
G1 X124.381 Y214.714 E11.49412
G1 X124.703 Y214.401 E11.5092
G1 X124.938 Y214.179 E11.52006
G1 X125.986 Y213.209 E11.56803
G1 X126.655 Y212.609 E11.59822
G1 X127.076 Y212.251 E11.61679
G1 X127.273 Y212.092 E11.62529
G1 X127.569 Y211.862 E11.63788
G1 X128.988 Y210.796 E11.6975
G1 X129.569 Y210.373 E11.72164
G1 X130.095 Y210.013 E11.74306
G1 X130.474 Y209.772 E11.75814
G0 F6000 X130.684 Y210.113
G1 F1200 X130.944 Y209.953 E11.7684
G1 X132.279 Y209.152 E11.8207
G1 X132.936 Y208.771 E11.84621
G1 X133.459 Y208.488 E11.86619
G1 X133.866 Y208.284 E11.88148
G1 X134.124 Y208.16 E11.8911
G1 X135.601 Y207.47 E11.94586
G1 X136.238 Y207.184 E11.96932
G1 X136.749 Y206.971 E11.98792
G1 X136.976 Y206.883 E11.99609
G1 X137.312 Y206.759 E12.00812
G1 X138.945 Y206.19 E12.06622
G1 X139.692 Y205.943 E12.09265
G1 X140.248 Y205.776 E12.11215
G1 X140.682 Y205.661 E12.12723
G1 X141.035 Y205.574 E12.13944
G1 X142.391 Y205.254 E12.18625
G1 X143.269 Y205.061 E12.21645
G1 X143.813 Y204.957 E12.23505
G1 X144.02 Y204.923 E12.2421
G1 X144.369 Y204.872 E12.25395
G1 X146.142 Y204.642 E12.31401
G1 X146.848 Y204.561 E12.33788
G1 X147.451 Y204.509 E12.35821
G1 X147.731 Y204.493 E12.36763
G1 X148.052 Y204.48 E12.37842
G1 X149.769 Y204.435 E12.43612
G1 X150.488 Y204.426 E12.46028
G1 X151.112 Y204.436 E12.48124
G1 X151.371 Y204.448 E12.48995
G1 X151.873 Y204.48 E12.50685
G1 X153.253 Y204.587 E12.55335
G1 X155.878 Y204.753 E12.6417
G1 X158.421 Y204.842 E12.72718
G1 X160.932 Y204.859 E12.81153
G1 X163.478 Y204.804 E12.89708
G1 X165.999 Y204.678 E12.98187
G1 X168.508 Y204.482 E13.06642
G1 X171.055 Y204.21 E13.15246
G1 X173.533 Y203.875 E13.23646
G1 X176 Y203.469 E13.32045
G1 X178.542 Y202.976 E13.40743
G1 X180.94 Y202.441 E13.48997
G1 X183.439 Y201.81 E13.57655
G1 X185.848 Y201.127 E13.66067
G1 X188.28 Y200.364 E13.74629
G1 X190.668 Y199.538 E13.83117
G1 X193.031 Y198.646 E13.91602
G1 X195.44 Y197.658 E14.00349
G1 X195.676 Y197.557 E14.01211
G1 X196.294 Y197.3 E14.0346
G1 X197.769 Y196.701 E14.08807
G1 X198.414 Y196.449 E14.11134
G1 X198.963 Y196.252 E14.13093
G1 X199.24 Y196.161 E14.14072
G1 X199.58 Y196.055 E14.15269
G1 X201.251 Y195.569 E14.21115
G1 X201.937 Y195.38 E14.23505
G1 X202.519 Y195.237 E14.25518
G1 X202.949 Y195.147 E14.26994
G1 X203.325 Y195.074 E14.28281
G1 X204.829 Y194.802 E14.33415
G1 X205.526 Y194.685 E14.35789
G1 X206.131 Y194.602 E14.37841
G1 X206.609 Y194.551 E14.39456
G1 X206.885 Y194.527 E14.40386
G1 X208.47 Y194.406 E14.45726
G1 X209.183 Y194.361 E14.48126
G1 X209.813 Y194.34 E14.50244
G1 X210.279 Y194.34 E14.51809
G1 X210.545 Y194.344 E14.52703
G1 X211.951 Y194.38 E14.57427
G1 X212.878 Y194.417 E14.60544
G1 X213.43 Y194.453 E14.62402
G1 X213.592 Y194.468 E14.62949
G1 X213.871 Y194.498 E14.63891
G1 X214.367 Y194.558 E14.6557
G1 X215.827 Y194.75 E14.70516
G1 X216.486 Y194.846 E14.72754
G1 X217.096 Y194.953 E14.74834
G1 X217.465 Y195.029 E14.761
G1 X217.761 Y195.094 E14.77118
G1 X219.349 Y195.47 E14.826
G1 X220.054 Y195.647 E14.85041
G1 X220.619 Y195.806 E14.87013
G1 X221.092 Y195.955 E14.88679
G1 X221.403 Y196.06 E14.89782
G1 X222.854 Y196.567 E14.94945
G1 X223.518 Y196.808 E14.97318
G1 X224.113 Y197.044 E14.99468
G1 X224.381 Y197.16 E15.00449
G1 X224.656 Y197.284 E15.01463
G1 X226.238 Y198.024 E15.0733
G1 X226.855 Y198.323 E15.09633
G1 X227.425 Y198.621 E15.11794
G1 X227.786 Y198.826 E15.13188
G1 X228.111 Y199.017 E15.14454
G1 X229.404 Y199.794 E15.19522
G1 X230.008 Y200.167 E15.21907
G1 X230.554 Y200.529 E15.24107
G1 X230.903 Y200.777 E15.25546
G1 X231.191 Y200.989 E15.26747
