;FLAVOR:Marlin
;TIME:12145
;Filament used: 8.97415m
;Layer height: 0.2
;MINX:86.368
;MINY:162.189
;MINZ:0.2
;MAXX:213.632
;MAXY:264.958
;MAXZ:10.2
;Generated with Cura_SteamEngine 4.13.1
M140 S60
M105
M190 S60
M104 S220
M105
M109 S220
M82 ;absolute extrusion mode
M201 X500.00 Y500.00 Z100.00 E5000.00 ;Setup machine max acceleration
M203 X500.00 Y500.00 Z10.00 E50.00 ;Setup machine max feedrate
M204 P500.00 R1000.00 T500.00 ;Setup Print/Retract/Travel acceleration
M205 X8.00 Y8.00 Z0.40 E5.00 ;Setup Jerk
M220 S100 ;Reset Feedrate
M221 S100 ;Reset Flowrate
M412 S0 ;

G28 ;Home
G29 ;Autolevel
G92 E0 ;Reset Extruder
G1 Z2.0 F3000 ;Move Z Axis up
G1 X10.1 Y20 Z0.28 F5000.0 ;Move to start position
G1 X10.1 Y200.0 Z0.28 F1500.0 E15 ;Draw the first line
G1 X10.4 Y200.0 Z0.28 F5000.0 ;Move to side a little
G1 X10.4 Y20 Z0.28 F1500.0 E30 ;Draw the second line
G92 E0 ;Reset Extruder
G1 Z2.0 F3000 ;Move Z Axis up
G92 E0
G92 E0
G1 F2700 E-3
;LAYER_COUNT:50
;LAYER:0
M107
G1 F300 Z0.4
G0 F6000 X91.78 Y163.728 Z0.4
;TYPE:SKIRT
G1 F300 Z0.2
G1 F2700 E0
G1 F1200 X92.607 Y163.286 E0.03212
G1 X93.469 Y162.916 E0.06426
G1 X94.359 Y162.62 E0.09639
G1 X95.271 Y162.402 E0.12851
G1 X96.198 Y162.261 E0.16064
G1 X97.069 Y162.202 E0.19054
G1 X97.39 Y162.193 E0.20155
G1 X97.698 Y162.189 E0.2121
G1 X201.925 Y162.189 E3.7827
G1 X202.781 Y162.2 E3.81203
G1 X203.717 Y162.254 E3.84415
G1 X204.645 Y162.386 E3.87626
G1 X205.559 Y162.598 E3.9084
G1 X206.451 Y162.887 E3.94052
G1 X207.316 Y163.25 E3.97266
G1 X208.146 Y163.686 E4.00478
G1 X208.937 Y164.191 E4.03693
G1 X209.681 Y164.762 E4.06906
G1 X210.374 Y165.394 E4.10119
G1 X211.011 Y166.082 E4.13331
G1 X211.586 Y166.823 E4.16544
G1 X212.097 Y167.609 E4.19756
G1 X212.539 Y168.437 E4.22971
G1 X212.908 Y169.299 E4.26183
G1 X213.203 Y170.189 E4.29395
G1 X213.421 Y171.101 E4.32608
G1 X213.561 Y172.029 E4.35823
G1 X213.619 Y172.89 E4.38779
G1 X213.628 Y173.21 E4.39876
G1 X213.632 Y173.519 E4.40934
G1 X213.631 Y253.358 E7.14446
G1 X213.622 Y254.085 E7.16937
G1 X213.571 Y255.022 E7.20152
G1 X213.439 Y255.95 E7.23363
G1 X213.23 Y256.864 E7.26575
G1 X212.943 Y257.757 E7.29788
G1 X212.581 Y258.623 E7.33004
G1 X212.147 Y259.454 E7.36215
G1 X211.643 Y260.245 E7.39429
G1 X211.074 Y260.99 E7.4264
G1 X210.443 Y261.685 E7.45856
G1 X209.756 Y262.323 E7.49068
G1 X209.017 Y262.9 E7.5228
G1 X208.231 Y263.412 E7.55493
G1 X207.405 Y263.855 E7.58704
G1 X206.543 Y264.227 E7.61921
G1 X205.654 Y264.523 E7.65131
G1 X204.742 Y264.743 E7.68344
G1 X203.815 Y264.884 E7.71557
G1 X202.931 Y264.945 E7.74592
G1 X202.61 Y264.954 E7.75692
G1 X202.302 Y264.958 E7.76748
G1 X97.933 Y264.957 E11.34294
G1 X97.235 Y264.948 E11.36686
G1 X96.299 Y264.896 E11.39897
G1 X95.37 Y264.764 E11.43112
G1 X94.456 Y264.554 E11.46324
G1 X93.563 Y264.267 E11.49538
G1 X92.698 Y263.904 E11.52752
G1 X91.867 Y263.47 E11.55963
G1 X91.076 Y262.966 E11.59176
G1 X90.331 Y262.396 E11.6239
G1 X89.637 Y261.765 E11.65603
G1 X89 Y261.078 E11.68813
G1 X88.423 Y260.338 E11.72027
G1 X87.911 Y259.552 E11.75241
G1 X87.468 Y258.725 E11.78455
G1 X87.097 Y257.864 E11.81667
G1 X86.801 Y256.974 E11.8488
G1 X86.582 Y256.062 E11.88093
G1 X86.441 Y255.135 E11.91305
G1 X86.381 Y254.246 E11.94358
G1 X86.372 Y253.913 E11.95499
G1 X86.368 Y253.616 E11.96516
G1 X86.369 Y173.714 E14.70244
G1 X86.378 Y173.049 E14.72523
G1 X86.431 Y172.113 E14.75734
G1 X86.563 Y171.184 E14.78949
G1 X86.774 Y170.27 E14.82162
G1 X87.062 Y169.378 E14.85374
G1 X87.425 Y168.513 E14.88587
G1 X87.86 Y167.682 E14.918
G1 X88.364 Y166.892 E14.95011
G1 X88.934 Y166.147 E14.98224
G1 X89.566 Y165.453 E15.0144
G1 X90.254 Y164.816 E15.04652
G1 X90.994 Y164.24 E15.07864
G1 X91.78 Y163.728 E15.11078
G0 F6000 X92.159 Y163.971
G1 F1200 X92.979 Y163.553 E15.14231
G1 X93.833 Y163.208 E15.17386
G1 X94.713 Y162.938 E15.2054
G1 X95.613 Y162.746 E15.23692
G1 X96.527 Y162.632 E15.26848
G1 X97.08 Y162.602 E15.28745
G1 X97.401 Y162.593 E15.29845
G1 X97.698 Y162.589 E15.30863
G1 X201.925 Y162.589 E18.87923
G1 X202.775 Y162.6 E18.90835
G1 X203.694 Y162.653 E18.93989
G1 X204.605 Y162.786 E18.97143
G1 X205.501 Y162.997 E19.00296
G1 X206.375 Y163.285 E19.03449
G1 X207.222 Y163.648 E19.06606
G1 X208.033 Y164.083 E19.09758
G1 X208.803 Y164.587 E19.12911
G1 X209.527 Y165.156 E19.16066
G1 X210.199 Y165.786 E19.19221
G1 X210.814 Y166.471 E19.22375
G1 X211.367 Y167.207 E19.25529
G1 X211.854 Y167.988 E19.28682
G1 X212.271 Y168.809 E19.31836
G1 X212.616 Y169.663 E19.34992
G1 X212.885 Y170.543 E19.38144
G1 X213.077 Y171.444 E19.413
G1 X213.19 Y172.357 E19.44452
G1 X213.219 Y172.901 E19.46318
G1 X213.228 Y173.221 E19.47415
G1 X213.232 Y173.519 E19.48436
G1 X213.231 Y253.353 E22.2193
G1 X213.222 Y254.08 E22.24421
G1 X213.171 Y254.999 E22.27574
G1 X213.04 Y255.911 E22.30731
G1 X212.83 Y256.807 E22.33883
G1 X212.544 Y257.682 E22.37037
G1 X212.183 Y258.529 E22.40191
G1 X211.749 Y259.341 E22.43345
G1 X211.247 Y260.113 E22.465
G1 X210.679 Y260.838 E22.49655
G1 X210.051 Y261.511 E22.52809
G1 X209.367 Y262.127 E22.55962
G1 X208.632 Y262.681 E22.59115
G1 X207.852 Y263.17 E22.62269
G1 X207.032 Y263.589 E22.65424
G1 X206.179 Y263.935 E22.68577
G1 X205.299 Y264.206 E22.71732
G1 X204.399 Y264.399 E22.74885
G1 X203.485 Y264.514 E22.78041
G1 X202.92 Y264.545 E22.79979
G1 X202.599 Y264.554 E22.81079
G1 X202.302 Y264.558 E22.82097
G1 X97.938 Y264.557 E26.39626
G1 X97.24 Y264.548 E26.42018
G1 X96.321 Y264.496 E26.45171
G1 X95.41 Y264.365 E26.48324
G1 X94.514 Y264.155 E26.51477
G1 X93.639 Y263.868 E26.54632
G1 X92.792 Y263.506 E26.57787
G1 X91.98 Y263.072 E26.60941
G1 X91.209 Y262.57 E26.64093
G1 X90.484 Y262.002 E26.67248
G1 X89.811 Y261.373 E26.70404
G1 X89.196 Y260.689 E26.73555
G1 X88.642 Y259.954 E26.76708
G1 X88.154 Y259.173 E26.79863
G1 X87.735 Y258.353 E26.83018
G1 X87.389 Y257.5 E26.86171
G1 X87.119 Y256.62 E26.89325
G1 X86.926 Y255.719 E26.92481
G1 X86.812 Y254.806 E26.95633
G1 X86.781 Y254.235 E26.97592
G1 X86.772 Y253.902 E26.98734
G1 X86.768 Y253.616 E26.99713
G1 X86.769 Y173.72 E29.73421
G1 X86.778 Y173.055 E29.75699
G1 X86.83 Y172.135 E29.78856
G1 X86.962 Y171.224 E29.82009
G1 X87.173 Y170.328 E29.85163
G1 X87.46 Y169.453 E29.88317
G1 X87.823 Y168.607 E29.91471
G1 X88.257 Y167.795 E29.94625
G1 X88.76 Y167.024 E29.97779
G1 X89.329 Y166.3 E30.00934
G1 X89.957 Y165.628 E30.04085
G1 X90.642 Y165.012 E30.07241
G1 X91.378 Y164.459 E30.10394
G1 X92.159 Y163.971 E30.13549
G0 F6000 X92.537 Y164.22
G1 F1200 X93.35 Y163.827 E30.16643
G1 X94.195 Y163.507 E30.19738
G1 X95.064 Y163.264 E30.22829
G1 X95.952 Y163.098 E30.25924
G1 X97.091 Y163.002 E30.2984
G1 X97.412 Y162.993 E30.3094
G1 X97.698 Y162.989 E30.3192
G1 X201.925 Y162.989 E33.8898
G1 X202.769 Y163 E33.91872
G1 X203.671 Y163.053 E33.94967
G1 X204.564 Y163.185 E33.9806
G1 X205.442 Y163.396 E34.01153
G1 X206.298 Y163.684 E34.04247
G1 X207.125 Y164.046 E34.0734
G1 X207.917 Y164.481 E34.10435
G1 X208.668 Y164.983 E34.1353
G1 X209.371 Y165.55 E34.16624
G1 X210.021 Y166.177 E34.19718
G1 X210.613 Y166.859 E34.22812
G1 X211.143 Y167.59 E34.25905
G1 X211.605 Y168.366 E34.28999
G1 X211.998 Y169.179 E34.32092
G1 X212.316 Y170.024 E34.35185
G1 X212.559 Y170.894 E34.3828
G1 X212.724 Y171.782 E34.41374
G1 X212.819 Y172.912 E34.45259
G1 X212.828 Y173.232 E34.46356
G1 X212.832 Y173.519 E34.47339
G1 X212.831 Y253.348 E37.20817
G1 X212.822 Y254.075 E37.23307
G1 X212.771 Y254.977 E37.26402
G1 X212.64 Y255.871 E37.29498
G1 X212.431 Y256.749 E37.3259
G1 X212.145 Y257.606 E37.35685
G1 X211.784 Y258.434 E37.38779
G1 X211.352 Y259.226 E37.4187
G1 X210.851 Y259.978 E37.44965
G1 X210.285 Y260.682 E37.4806
G1 X209.66 Y261.333 E37.51151
G1 X208.979 Y261.927 E37.54247
G1 X208.248 Y262.458 E37.57342
G1 X207.474 Y262.922 E37.60434
G1 X206.661 Y263.316 E37.63529
G1 X205.817 Y263.636 E37.66621
G1 X204.947 Y263.881 E37.69718
G1 X204.06 Y264.047 E37.72809
G1 X202.909 Y264.145 E37.76766
G1 X202.588 Y264.154 E37.77866
G1 X202.302 Y264.158 E37.78846
G1 X97.943 Y264.157 E41.36359
G1 X97.245 Y264.148 E41.3875
G1 X96.344 Y264.097 E41.41842
G1 X95.45 Y263.965 E41.44938
G1 X94.572 Y263.756 E41.48029
G1 X93.715 Y263.469 E41.51126
G1 X92.888 Y263.108 E41.54217
G1 X92.095 Y262.675 E41.57312
G1 X91.344 Y262.174 E41.60405
G1 X90.64 Y261.608 E41.63499
G1 X89.989 Y260.982 E41.66593
G1 X89.396 Y260.301 E41.69687
G1 X88.866 Y259.57 E41.7278
G1 X88.402 Y258.795 E41.75875
G1 X88.008 Y257.982 E41.7897
G1 X87.688 Y257.138 E41.82062
G1 X87.444 Y256.268 E41.85157
G1 X87.278 Y255.38 E41.88252
G1 X87.181 Y254.225 E41.92223
G1 X87.172 Y253.892 E41.93364
G1 X87.168 Y253.616 E41.9431
G1 X87.169 Y173.725 E44.68
G1 X87.178 Y173.06 E44.70278
G1 X87.23 Y172.158 E44.73373
G1 X87.362 Y171.265 E44.76466
G1 X87.572 Y170.387 E44.79558
G1 X87.859 Y169.53 E44.82655
G1 X88.221 Y168.703 E44.85747
G1 X88.654 Y167.911 E44.8884
G1 X89.156 Y167.16 E44.91934
G1 X89.723 Y166.456 E44.95031
G1 X90.349 Y165.806 E44.98122
G1 X91.03 Y165.213 E45.01216
G1 X91.762 Y164.683 E45.04312
G1 X92.537 Y164.22 E45.07405
G1 F2700 E42.07405
G1 F300 Z0.4
;MESH:pcbcasetop.STL
G0 F6000 X190.762 Y247.974 Z0.4
;TYPE:WALL-INNER
G1 F300 Z0.2
G1 F2700 E45.07405
G1 F1200 X191.086 Y248.19 E45.08739
G1 X191.441 Y248.351 E45.10074
G1 X191.819 Y248.449 E45.11412
G1 X192.205 Y248.481 E45.12739
G1 X192.598 Y248.448 E45.1409
G1 X192.976 Y248.348 E45.15429
G1 X193.331 Y248.186 E45.16766
G1 X193.654 Y247.968 E45.18101
G1 X193.936 Y247.696 E45.19443
G1 X194.167 Y247.383 E45.20776
G1 X194.343 Y247.033 E45.22118
G1 X194.455 Y246.66 E45.23452
G1 X194.506 Y246.272 E45.24793
G1 X194.487 Y245.882 E45.2613
G1 X194.406 Y245.502 E45.27461
G1 X194.258 Y245.138 E45.28808
G1 X194.053 Y244.806 E45.30144
G1 X193.794 Y244.514 E45.31481
G1 X193.49 Y244.27 E45.32817
G1 X193.148 Y244.08 E45.34157
G1 X192.781 Y243.951 E45.3549
G1 X192.402 Y243.886 E45.36807
G1 X192.001 Y243.886 E45.38181
G1 X191.621 Y243.953 E45.39503
G1 X191.253 Y244.083 E45.4084
G1 X190.912 Y244.275 E45.4218
G1 X190.61 Y244.519 E45.43511
G1 X190.351 Y244.814 E45.44855
G1 X190.147 Y245.148 E45.46196
G1 X190.003 Y245.511 E45.47534
G1 X189.922 Y245.89 E45.48862
G1 X189.905 Y246.28 E45.50199
G1 X189.956 Y246.669 E45.51543
G1 X190.071 Y247.041 E45.52877
G1 X190.247 Y247.391 E45.54219
G1 X190.481 Y247.703 E45.55555
G1 X190.762 Y247.974 E45.56892
G0 F6000 X191.014 Y247.661
;TYPE:WALL-OUTER
G1 F1200 X191.281 Y247.839 E45.57992
G1 X191.575 Y247.972 E45.59097
G1 X191.887 Y248.053 E45.60202
G1 X192.205 Y248.08 E45.61295
G1 X192.529 Y248.052 E45.62409
G1 X192.841 Y247.97 E45.63514
G1 X193.135 Y247.836 E45.64621
G1 X193.401 Y247.656 E45.65721
G1 X193.634 Y247.431 E45.66831
G1 X193.825 Y247.173 E45.67931
G1 X193.97 Y246.884 E45.69038
G1 X194.063 Y246.576 E45.7014
G1 X194.105 Y246.256 E45.71246
G1 X194.089 Y245.934 E45.72351
G1 X194.022 Y245.62 E45.7345
G1 X193.9 Y245.32 E45.7456
G1 X193.731 Y245.046 E45.75663
G1 X193.517 Y244.805 E45.76767
G1 X193.266 Y244.603 E45.77871
G1 X192.984 Y244.446 E45.78976
G1 X192.68 Y244.34 E45.80079
G1 X192.368 Y244.286 E45.81164
G1 X192.036 Y244.286 E45.82301
G1 X191.723 Y244.341 E45.8339
G1 X191.419 Y244.449 E45.84495
G1 X191.137 Y244.607 E45.85603
G1 X190.888 Y244.809 E45.86701
G1 X190.674 Y245.052 E45.8781
G1 X190.506 Y245.327 E45.88914
G1 X190.387 Y245.627 E45.9002
G1 X190.32 Y245.941 E45.9112
G1 X190.306 Y246.263 E45.92224
G1 X190.348 Y246.583 E45.9333
G1 X190.443 Y246.891 E45.94434
G1 X190.588 Y247.18 E45.95542
G1 X190.781 Y247.437 E45.96643
G1 X191.014 Y247.661 E45.9775
G0 F6000 X190.739 Y248.004
G1 F2700 E42.9775
G1 F300 Z0.4
G0 F6000 X191.441 Y182.478 Z0.4
;TYPE:WALL-INNER
G1 F300 Z0.2
G1 F2700 E45.9775
G1 F1200 X191.819 Y182.576 E45.99088
G1 X192.205 Y182.608 E46.00415
G1 X192.598 Y182.575 E46.01766
G1 X192.976 Y182.475 E46.03105
G1 X193.331 Y182.313 E46.04442
G1 X193.654 Y182.095 E46.05777
G1 X193.936 Y181.823 E46.07119
G1 X194.167 Y181.51 E46.08452
G1 X194.343 Y181.16 E46.09794
G1 X194.455 Y180.787 E46.11128
G1 X194.506 Y180.399 E46.12469
G1 X194.487 Y180.009 E46.13806
G1 X194.406 Y179.629 E46.15137
G1 X194.258 Y179.265 E46.16484
G1 X194.053 Y178.933 E46.1782
G1 X193.794 Y178.641 E46.19157
G1 X193.49 Y178.397 E46.20493
G1 X193.148 Y178.207 E46.21833
G1 X192.781 Y178.078 E46.23166
G1 X192.402 Y178.013 E46.24483
G1 X192.001 Y178.013 E46.25857
G1 X191.621 Y178.08 E46.27179
G1 X191.253 Y178.21 E46.28516
G1 X190.912 Y178.402 E46.29856
G1 X190.61 Y178.646 E46.31186
G1 X190.351 Y178.941 E46.32531
G1 X190.147 Y179.275 E46.33872
G1 X190.003 Y179.638 E46.3521
G1 X189.922 Y180.017 E46.36538
G1 X189.905 Y180.407 E46.37875
G1 X189.956 Y180.796 E46.39219
G1 X190.071 Y181.168 E46.40553
G1 X190.247 Y181.518 E46.41895
G1 X190.481 Y181.83 E46.43231
G1 X190.762 Y182.101 E46.44568
G1 X191.086 Y182.317 E46.45902
G1 X191.441 Y182.478 E46.47238
G0 F6000 X191.575 Y182.099
;TYPE:WALL-OUTER
G1 F1200 X191.887 Y182.18 E46.48342
G1 X192.205 Y182.207 E46.49435
G1 X192.529 Y182.179 E46.5055
G1 X192.841 Y182.097 E46.51655
G1 X193.135 Y181.963 E46.52762
G1 X193.401 Y181.783 E46.53862
G1 X193.634 Y181.558 E46.54971
G1 X193.825 Y181.3 E46.56071
G1 X193.97 Y181.011 E46.57179
G1 X194.063 Y180.703 E46.58281
G1 X194.105 Y180.383 E46.59387
G1 X194.089 Y180.061 E46.60491
G1 X194.022 Y179.747 E46.61591
G1 X193.9 Y179.447 E46.62701
G1 X193.731 Y179.173 E46.63803
G1 X193.517 Y178.932 E46.64908
G1 X193.266 Y178.73 E46.66011
G1 X192.984 Y178.573 E46.67117
G1 X192.68 Y178.467 E46.6822
G1 X192.368 Y178.413 E46.69305
G1 X192.036 Y178.413 E46.70442
G1 X191.723 Y178.468 E46.71531
G1 X191.419 Y178.576 E46.72636
G1 X191.137 Y178.734 E46.73743
G1 X190.888 Y178.936 E46.74842
G1 X190.674 Y179.179 E46.75951
G1 X190.506 Y179.454 E46.77055
G1 X190.387 Y179.754 E46.78161
G1 X190.32 Y180.068 E46.79261
G1 X190.306 Y180.39 E46.80365
G1 X190.348 Y180.71 E46.8147
G1 X190.443 Y181.018 E46.82575
G1 X190.588 Y181.307 E46.83682
G1 X190.781 Y181.564 E46.84783
G1 X191.014 Y181.788 E46.8589
G1 X191.281 Y181.966 E46.8699
G1 X191.575 Y182.099 E46.88095
G0 F6000 X191.429 Y182.513
G1 F2700 E43.88095
G1 F300 Z0.4
G0 F6000 X108.401 Y182.806 Z0.4
;TYPE:WALL-INNER
G1 F300 Z0.2
G1 F2700 E46.88095
G1 F1200 X108.756 Y182.644 E46.89432
G1 X109.078 Y182.426 E46.90764
G1 X109.361 Y182.154 E46.92109
G1 X109.591 Y181.841 E46.9344
G1 X109.767 Y181.491 E46.94782
G1 X109.879 Y181.118 E46.96116
G1 X109.93 Y180.731 E46.97453
G1 X109.912 Y180.34 E46.98794
G1 X109.83 Y179.959 E47.00129
G1 X109.682 Y179.596 E47.01472
G1 X109.477 Y179.265 E47.02806
G1 X109.219 Y178.972 E47.04143
G1 X108.914 Y178.728 E47.05481
G1 X108.574 Y178.538 E47.06816
G1 X108.206 Y178.409 E47.08152
G1 X107.827 Y178.344 E47.09469
G1 X107.425 Y178.344 E47.10846
G1 X107.045 Y178.411 E47.12168
G1 X106.677 Y178.541 E47.13505
G1 X106.336 Y178.733 E47.14846
G1 X106.034 Y178.978 E47.16178
G1 X105.776 Y179.272 E47.17518
G1 X105.572 Y179.605 E47.18856
G1 X105.427 Y179.968 E47.20195
G1 X105.346 Y180.348 E47.21526
G1 X105.329 Y180.739 E47.22867
G1 X105.381 Y181.127 E47.24208
G1 X105.494 Y181.499 E47.2554
G1 X105.672 Y181.849 E47.26885
G1 X105.904 Y182.161 E47.28217
G1 X106.186 Y182.432 E47.29557
G1 X106.51 Y182.648 E47.30891
G1 X106.865 Y182.809 E47.32226
G1 X107.243 Y182.907 E47.33564
G1 X107.629 Y182.939 E47.34891
G1 X108.023 Y182.906 E47.36245
G1 X108.401 Y182.806 E47.37585
G0 F6000 X108.266 Y182.428
;TYPE:WALL-OUTER
G1 F1200 X108.559 Y182.294 E47.38688
G1 X108.825 Y182.114 E47.39789
G1 X109.059 Y181.889 E47.40901
G1 X109.249 Y181.631 E47.41998
G1 X109.394 Y181.342 E47.43106
G1 X109.487 Y181.034 E47.44208
G1 X109.529 Y180.714 E47.45314
G1 X109.514 Y180.392 E47.46418
G1 X109.446 Y180.078 E47.47519
G1 X109.324 Y179.778 E47.48628
G1 X109.155 Y179.504 E47.49731
G1 X108.942 Y179.263 E47.50833
G1 X108.69 Y179.061 E47.51939
G1 X108.409 Y178.904 E47.53042
G1 X108.105 Y178.798 E47.54145
G1 X107.793 Y178.744 E47.5523
G1 X107.46 Y178.744 E47.56371
G1 X107.147 Y178.799 E47.57459
G1 X106.843 Y178.907 E47.58565
G1 X106.561 Y179.065 E47.59672
G1 X106.312 Y179.267 E47.6077
G1 X106.099 Y179.51 E47.61877
G1 X105.931 Y179.785 E47.62981
G1 X105.811 Y180.085 E47.64088
G1 X105.744 Y180.399 E47.65188
G1 X105.73 Y180.721 E47.66292
G1 X105.773 Y181.041 E47.67398
