;FLAVOR:Marlin
;TIME:17235
;Filament used: 10.3297m
;Layer height: 0.2
;MINX:83.852
;MINY:116.808
;MINZ:0.2
;MAXX:216.148
;MAXY:183.192
;MAXZ:76.4
;Generated with Cura_SteamEngine 4.13.1
M140 S60
M105
M190 S60
M104 S215
M105
M109 S215
M82 ;absolute extrusion mode
M201 X500.00 Y500.00 Z100.00 E5000.00 ;Setup machine max acceleration
M203 X500.00 Y500.00 Z10.00 E50.00 ;Setup machine max feedrate
M204 P500.00 R1000.00 T500.00 ;Setup Print/Retract/Travel acceleration
M205 X8.00 Y8.00 Z0.40 E5.00 ;Setup Jerk
M220 S100 ;Reset Feedrate
M221 S100 ;Reset Flowrate

G28 ;Home
G29 ;BL autolevel
G92 E0 ;Reset Extruder
G1 Z2.0 F3000 ;Move Z Axis up
G1 X10.1 Y20 Z0.28 F5000.0 ;Move to start position
G1 X10.1 Y200.0 Z0.28 F1500.0 E15 ;Draw the first line
G1 X10.4 Y200.0 Z0.28 F5000.0 ;Move to side a little
G1 X10.4 Y20 Z0.28 F1500.0 E30 ;Draw the second line
G92 E0 ;Reset Extruder
G1 Z2.0 F3000 ;Move Z Axis up
G92 E0
G92 E0
G1 F2700 E-3
;LAYER_COUNT:381
;LAYER:0
M107
G1 F300 Z0.4
G0 F6000 X88.478 Y118.859 Z0.4
;TYPE:SKIRT
G1 F300 Z0.2
G1 F2700 E0
G1 F1200 X89.264 Y118.347 E0.03214
G1 X90.091 Y117.905 E0.06426
G1 X90.953 Y117.535 E0.0964
G1 X91.843 Y117.239 E0.12853
G1 X92.755 Y117.021 E0.16065
G1 X93.682 Y116.88 E0.19277
G1 X94.553 Y116.821 E0.22268
G1 X94.874 Y116.812 E0.23368
G1 X95.182 Y116.808 E0.24423
G1 X108.364 Y116.808 E0.69582
G1 X109.226 Y116.819 E0.72535
G1 X110.162 Y116.872 E0.75747
G1 X111.091 Y117.005 E0.78962
G1 X112.004 Y117.217 E0.82173
G1 X112.897 Y117.505 E0.85387
G1 X113.462 Y117.733 E0.87475
G1 X114.233 Y118.069 E0.90356
G1 X116.625 Y119.069 E0.99238
G1 X119.008 Y119.988 E1.07987
G1 X121.328 Y120.805 E1.16414
G1 X123.745 Y121.582 E1.25111
G1 X126.168 Y122.287 E1.33756
G1 X128.583 Y122.915 E1.42304
G1 X131.065 Y123.487 E1.5103
G1 X133.536 Y123.984 E1.59665
G1 X135.989 Y124.402 E1.68189
G1 X138.484 Y124.758 E1.76823
G1 X141.012 Y125.045 E1.85539
G1 X143.501 Y125.257 E1.94097
G1 X145.985 Y125.398 E2.0262
G1 X148.543 Y125.47 E2.11387
G1 X151.032 Y125.47 E2.19914
G1 X153.59 Y125.398 E2.28681
G1 X156.049 Y125.258 E2.37118
G1 X158.591 Y125.043 E2.45858
G1 X161.091 Y124.759 E2.54477
G1 X163.569 Y124.406 E2.63052
G1 X166.084 Y123.975 E2.71794
G1 X168.502 Y123.491 E2.80241
G1 X170.96 Y122.925 E2.88882
G1 X173.409 Y122.288 E2.97551
G1 X175.856 Y121.576 E3.06282
G1 X178.234 Y120.812 E3.14839
G1 X180.585 Y119.982 E3.2338
G1 X182.916 Y119.083 E3.31939
G1 X185.3 Y118.089 E3.40787
G1 X185.829 Y117.854 E3.4277
G1 X186.272 Y117.667 E3.44418
G1 X187.152 Y117.343 E3.4763
G1 X188.056 Y117.095 E3.50841
G1 X188.979 Y116.925 E3.54057
G1 X190.163 Y116.823 E3.58128
G1 X190.481 Y116.813 E3.59218
G1 X190.827 Y116.808 E3.60403
G1 X204.599 Y116.809 E4.07583
G1 X205.297 Y116.819 E4.09975
G1 X206.233 Y116.873 E4.13187
G1 X207.161 Y117.005 E4.16398
G1 X208.075 Y117.217 E4.19612
G1 X208.967 Y117.506 E4.22824
G1 X209.832 Y117.869 E4.26038
G1 X210.662 Y118.305 E4.2925
G1 X211.453 Y118.81 E4.32465
G1 X212.197 Y119.381 E4.35678
G1 X212.89 Y120.013 E4.38891
G1 X213.527 Y120.701 E4.42103
G1 X214.102 Y121.442 E4.45316
G1 X214.613 Y122.228 E4.48528
G1 X215.055 Y123.056 E4.51743
G1 X215.424 Y123.918 E4.54955
G1 X215.719 Y124.808 E4.58167
G1 X215.937 Y125.72 E4.6138
G1 X216.077 Y126.648 E4.64595
G1 X216.135 Y127.505 E4.67537
G1 X216.144 Y127.821 E4.6862
G1 X216.148 Y128.134 E4.69693
G1 X216.147 Y131.475 E4.81138
G1 X216.137 Y132.198 E4.83615
G1 X216.084 Y133.135 E4.8683
G1 X215.952 Y134.063 E4.90042
G1 X215.74 Y134.977 E4.93256
G1 X215.452 Y135.869 E4.96467
G1 X215.089 Y136.734 E4.99681
G1 X214.654 Y137.565 E5.02894
G1 X214.149 Y138.355 E5.06106
G1 X213.579 Y139.1 E5.0932
G1 X212.947 Y139.793 E5.12533
G1 X212.287 Y140.406 E5.15618
G1 X211.594 Y140.999 E5.18743
G1 X209.617 Y142.741 E5.2777
G1 X207.784 Y144.451 E5.36358
G1 X205.987 Y146.226 E5.45011
G1 X204.257 Y148.034 E5.53583
G1 X202.569 Y149.902 E5.62208
G1 X200.931 Y151.819 E5.70846
G1 X199.352 Y153.777 E5.79464
G1 X197.835 Y155.773 E5.88052
G1 X196.34 Y157.857 E5.96839
G1 X195.275 Y159.422 E6.03324
G1 X194.825 Y160.098 E6.06106
G1 X194.449 Y160.645 E6.0838
G1 X194.152 Y161.056 E6.10117
G1 X193.843 Y161.451 E6.11835
G1 X193.405 Y161.985 E6.14201
G1 X191.041 Y164.81 E6.2682
G1 X190.625 Y165.294 E6.29006
G1 X190.188 Y165.774 E6.3123
G1 X190.098 Y165.867 E6.31674
G1 X189.905 Y166.06 E6.32609
G1 X189.449 Y166.508 E6.34799
G1 X186.784 Y169.063 E6.47446
G1 X186.279 Y169.535 E6.49814
G1 X185.848 Y169.918 E6.5179
G1 X185.76 Y169.992 E6.52184
G1 X185.474 Y170.224 E6.53445
G1 X185.007 Y170.59 E6.55478
G1 X182.077 Y172.843 E6.6814
G1 X181.494 Y173.278 E6.70632
G1 X181.018 Y173.615 E6.7263
G1 X180.654 Y173.851 E6.74116
G1 X180.137 Y174.173 E6.76202
G1 X177.101 Y176.02 E6.88377
G1 X176.333 Y176.472 E6.91429
G1 X175.833 Y176.748 E6.93386
G1 X175.445 Y176.944 E6.94875
G1 X174.937 Y177.189 E6.96807
G1 X171.635 Y178.732 E7.09293
G1 X170.864 Y179.079 E7.1219
G1 X170.039 Y179.411 E7.15236
G1 X169.367 Y179.649 E7.17679
G1 X165.967 Y180.805 E7.29981
G1 X165.172 Y181.063 E7.32845
G1 X164.666 Y181.214 E7.34654
G1 X164.574 Y181.239 E7.3498
G1 X164.197 Y181.334 E7.36312
G1 X163.581 Y181.478 E7.38479
G1 X160.08 Y182.255 E7.50765
G1 X159.268 Y182.424 E7.53606
G1 X158.606 Y182.54 E7.55909
G1 X158.272 Y182.586 E7.57064
G1 X157.642 Y182.662 E7.59237
G1 X153.996 Y183.061 E7.71802
G1 X153.253 Y183.132 E7.74359
G1 X152.678 Y183.172 E7.76334
G1 X152.272 Y183.184 E7.77725
G1 X151.565 Y183.192 E7.80148
G1 X147.91 Y183.191 E7.92669
G1 X147.212 Y183.181 E7.9506
G1 X146.592 Y183.154 E7.97186
G1 X146.171 Y183.121 E7.98633
G1 X145.562 Y183.06 E8.0073
G1 X141.918 Y182.659 E8.13289
G1 X141.162 Y182.565 E8.15899
G1 X140.542 Y182.47 E8.18047
G1 X140.159 Y182.396 E8.19384
G1 X139.615 Y182.281 E8.21289
G1 X135.891 Y181.455 E8.34356
G1 X135.281 Y181.31 E8.36504
G1 X134.758 Y181.172 E8.38357
G1 X134.317 Y181.038 E8.39936
G1 X133.646 Y180.818 E8.42355
G1 X130.287 Y179.675 E8.54511
G1 X129.524 Y179.404 E8.57284
G1 X128.919 Y179.168 E8.59509
G1 X128.547 Y179.007 E8.60898
G1 X128.026 Y178.77 E8.62859
G1 X124.664 Y177.198 E8.75573
G1 X124.02 Y176.887 E8.78023
G1 X123.411 Y176.569 E8.80377
G1 X123.092 Y176.386 E8.81636
G1 X122.575 Y176.079 E8.83696
G1 X119.532 Y174.23 E8.95895
G1 X118.808 Y173.776 E8.98822
G1 X118.297 Y173.435 E9.00927
G1 X117.976 Y173.202 E9.02286
G1 X117.469 Y172.821 E9.04458
G1 X114.559 Y170.582 E9.17037
G1 X113.954 Y170.102 E9.19682
G1 X113.278 Y169.519 E9.2274
G1 X112.742 Y169.017 E9.25256
G1 X110.085 Y166.465 E9.37877
G1 X109.561 Y165.946 E9.40404
G1 X109.185 Y165.555 E9.42262
G1 X108.901 Y165.236 E9.43725
G1 X108.45 Y164.71 E9.46099
G1 X106.203 Y162.022 E9.58101
G1 X105.656 Y161.35 E9.61069
G1 X105.312 Y160.905 E9.62996
G1 X105.063 Y160.554 E9.64471
G1 X104.711 Y160.037 E9.66613
G1 X103.727 Y158.558 E9.72699
G1 X102.293 Y156.468 E9.81382
G1 X100.785 Y154.399 E9.90153
G1 X99.251 Y152.414 E9.98747
G1 X97.652 Y150.462 E10.07391
G1 X96.029 Y148.591 E10.15877
G1 X94.295 Y146.702 E10.24661
G1 X92.559 Y144.913 E10.33201
G1 X90.766 Y143.17 E10.41767
G1 X88.295 Y140.918 E10.53221
G1 X87.592 Y140.299 E10.5643
G1 X86.915 Y139.65 E10.59642
G1 X86.296 Y138.945 E10.62856
G1 X85.739 Y138.19 E10.66071
G1 X85.249 Y137.391 E10.69282
G1 X84.828 Y136.553 E10.72494
G1 X84.481 Y135.681 E10.75709
G1 X84.209 Y134.784 E10.78921
G1 X84.014 Y133.866 E10.82136
G1 X83.898 Y132.936 E10.85346
G1 X83.867 Y132.382 E10.87247
G1 X83.857 Y132.057 E10.88361
G1 X83.852 Y131.719 E10.89519
G1 X83.853 Y128.333 E11.01119
G1 X83.862 Y127.668 E11.03397
G1 X83.915 Y126.732 E11.06609
G1 X84.047 Y125.803 E11.09823
G1 X84.258 Y124.889 E11.13037
G1 X84.546 Y123.997 E11.16248
G1 X84.909 Y123.132 E11.19462
G1 X85.344 Y122.301 E11.22675
G1 X85.848 Y121.511 E11.25885
G1 X86.418 Y120.766 E11.29099
G1 X87.05 Y120.072 E11.32314
G1 X87.738 Y119.435 E11.35526
G1 X88.478 Y118.859 E11.38739
G0 F6000 X88.862 Y119.078
G1 F1200 X89.643 Y118.59 E11.41894
G1 X90.463 Y118.172 E11.45047
G1 X91.317 Y117.827 E11.48202
G1 X92.197 Y117.557 E11.51356
G1 X93.097 Y117.365 E11.54508
G1 X94.011 Y117.251 E11.57664
G1 X94.564 Y117.221 E11.59561
G1 X94.885 Y117.212 E11.60661
G1 X95.182 Y117.208 E11.61679
G1 X108.364 Y117.208 E12.06837
G1 X109.22 Y117.219 E12.0977
G1 X110.139 Y117.272 E12.12924
G1 X111.05 Y117.405 E12.16078
G1 X111.946 Y117.616 E12.19231
G1 X112.821 Y117.904 E12.22387
G1 X113.302 Y118.1 E12.24166
G1 X114.044 Y118.423 E12.26939
G1 X116.476 Y119.44 E12.35969
G1 X118.857 Y120.359 E12.44713
G1 X121.222 Y121.191 E12.53301
G1 X123.617 Y121.961 E12.6192
G1 X126.062 Y122.673 E12.70644
G1 X128.507 Y123.308 E12.79298
G1 X130.968 Y123.875 E12.87949
G1 X133.455 Y124.375 E12.9664
G1 X135.943 Y124.8 E13.05287
G1 X138.449 Y125.157 E13.13958
G1 X140.931 Y125.439 E13.22516
G1 X143.482 Y125.656 E13.31287
G1 X145.987 Y125.798 E13.39882
G1 X148.532 Y125.87 E13.48604
G1 X151.043 Y125.87 E13.57206
G1 X153.588 Y125.798 E13.65929
G1 X156.107 Y125.655 E13.74572
G1 X158.634 Y125.441 E13.8326
G1 X161.126 Y125.158 E13.91852
G1 X163.622 Y124.802 E14.00489
G1 X166.152 Y124.369 E14.09283
G1 X168.572 Y123.885 E14.17737
G1 X171.07 Y123.309 E14.26519
G1 X173.548 Y122.665 E14.3529
G1 X175.952 Y121.966 E14.43867
G1 X178.353 Y121.194 E14.52507
G1 X180.725 Y120.356 E14.61125
G1 X183.097 Y119.442 E14.69834
G1 X185.454 Y118.459 E14.78582
G1 X185.992 Y118.22 E14.80599
G1 X186.426 Y118.036 E14.82214
G1 X187.29 Y117.719 E14.85367
G1 X188.178 Y117.477 E14.8852
G1 X189.084 Y117.314 E14.91674
G1 X190.176 Y117.223 E14.95427
G1 X190.494 Y117.213 E14.96517
G1 X190.827 Y117.208 E14.97658
G1 X204.593 Y117.209 E15.44818
G1 X205.291 Y117.219 E15.47209
G1 X206.21 Y117.272 E15.50363
G1 X207.121 Y117.405 E15.53517
G1 X208.017 Y117.616 E15.5667
G1 X208.891 Y117.904 E15.59823
G1 X209.738 Y118.267 E15.6298
G1 X210.549 Y118.702 E15.66132
G1 X211.319 Y119.206 E15.69285
G1 X212.043 Y119.775 E15.7244
G1 X212.715 Y120.405 E15.75595
G1 X213.33 Y121.09 E15.78749
G1 X213.883 Y121.826 E15.81903
G1 X214.37 Y122.607 E15.85056
G1 X214.787 Y123.428 E15.8821
G1 X215.132 Y124.282 E15.91366
G1 X215.401 Y125.162 E15.94518
G1 X215.593 Y126.063 E15.97674
G1 X215.706 Y126.976 E16.00826
G1 X215.735 Y127.516 E16.02678
G1 X215.744 Y127.832 E16.03761
G1 X215.748 Y128.134 E16.04796
G1 X215.747 Y131.47 E16.16224
G1 X215.737 Y132.193 E16.18702
G1 X215.684 Y133.112 E16.21855
G1 X215.552 Y134.023 E16.25009
G1 X215.341 Y134.919 E16.28162
G1 X215.053 Y135.794 E16.31318
G1 X214.691 Y136.64 E16.3447
G1 X214.256 Y137.451 E16.37623
G1 X213.753 Y138.222 E16.40777
G1 X213.184 Y138.946 E16.43931
G1 X212.555 Y139.619 E16.47087
G1 X212.027 Y140.102 E16.49538
G1 X211.319 Y140.708 E16.52731
G1 X209.343 Y142.449 E16.61753
G1 X207.512 Y144.156 E16.70329
G1 X205.718 Y145.93 E16.78972
G1 X203.955 Y147.772 E16.87707
G1 X202.284 Y149.62 E16.96242
G1 X200.618 Y151.572 E17.05034
G1 X199.021 Y153.551 E17.13746
G1 X197.511 Y155.537 E17.22292
G1 X196.037 Y157.592 E17.30956
G1 X194.945 Y159.197 E17.37607
G1 X194.495 Y159.872 E17.40386
G1 X194.119 Y160.419 E17.4266
G1 X193.833 Y160.815 E17.44333
G1 X193.534 Y161.197 E17.45995
G1 X193.098 Y161.728 E17.48349
G1 X190.738 Y164.549 E17.60949
G1 X190.322 Y165.033 E17.63135
G1 X189.9 Y165.495 E17.65279
G1 X189.625 Y165.775 E17.66623
G1 X189.172 Y166.219 E17.68796
G1 X186.511 Y168.771 E17.81427
G1 X186.006 Y169.243 E17.83795
G1 X185.59 Y169.612 E17.857
G1 X185.502 Y169.686 E17.86094
G1 X185.227 Y169.909 E17.87307
G1 X184.763 Y170.273 E17.89327
G1 X181.838 Y172.523 E18.01969
G1 X181.255 Y172.958 E18.04461
G1 X180.796 Y173.282 E18.06386
G1 X180.442 Y173.512 E18.07832
G1 X179.929 Y173.831 E18.09902
G1 X176.748 Y175.765 E18.22655
G1 X176.131 Y176.127 E18.25106
G1 X175.649 Y176.393 E18.26992
G1 X175.271 Y176.584 E18.28443
G1 X174.768 Y176.826 E18.30355
G1 X171.466 Y178.369 E18.42841
G1 X170.7 Y178.714 E18.45719
G1 X169.905 Y179.034 E18.48655
G1 X169.238 Y179.27 E18.51079
G1 X165.693 Y180.474 E18.63904
G1 X165.048 Y180.683 E18.66227
G1 X164.561 Y180.828 E18.67968
G1 X164.106 Y180.945 E18.69577
G1 X163.495 Y181.087 E18.71726
G1 X159.848 Y181.895 E18.84523
G1 X159.187 Y182.032 E18.86836
G1 X158.549 Y182.144 E18.89055
G1 X158.223 Y182.189 E18.90182
G1 X157.598 Y182.265 E18.92339
G1 X153.958 Y182.663 E19.04883
G1 X153.215 Y182.734 E19.0744
G1 X152.661 Y182.772 E19.09343
G1 X152.267 Y182.784 E19.10693
G1 X151.565 Y182.792 E19.13098
G1 X147.916 Y182.791 E19.25599
G1 X147.218 Y182.781 E19.2799
G1 X146.621 Y182.755 E19.30037
G1 X146.21 Y182.723 E19.3145
G1 X145.606 Y182.663 E19.33529
G1 X141.967 Y182.262 E19.46071
G1 X141.211 Y182.168 E19.48681
G1 X140.614 Y182.076 E19.5075
G1 X140.241 Y182.005 E19.52051
G1 X139.701 Y181.891 E19.53942
G1 X135.984 Y181.066 E19.66985
G1 X135.374 Y180.921 E19.69133
G1 X134.87 Y180.788 E19.70919
G1 X134.441 Y180.657 E19.72455
G1 X133.775 Y180.439 E19.74856
G1 X130.276 Y179.247 E19.87519
G1 X129.658 Y179.027 E19.89767
G1 X129.075 Y178.8 E19.9191
G1 X128.712 Y178.643 E19.93265
G1 X128.195 Y178.407 E19.95212
G1 X124.838 Y176.838 E20.07906
G1 X124.194 Y176.527 E20.10356
G1 X123.607 Y176.221 E20.12624
G1 X123.296 Y176.042 E20.13853
G1 X122.783 Y175.737 E20.15898
G1 X119.607 Y173.806 E20.28632
G1 X119.021 Y173.438 E20.31002
G1 X118.528 Y173.109 E20.33033
G1 X118.216 Y172.882 E20.34354
G1 X117.713 Y172.504 E20.3651
G1 X114.808 Y170.269 E20.49066
G1 X114.203 Y169.789 E20.51712
G1 X113.551 Y169.227 E20.54661
G1 X113.019 Y168.729 E20.57157
G1 X110.486 Y166.298 E20.69185
G1 X109.843 Y165.662 E20.72283
G1 X109.529 Y165.338 E20.73829
G1 X109.204 Y164.976 E20.75495
G1 X108.757 Y164.453 E20.77852
G1 X106.418 Y161.654 E20.90348
G1 X105.966 Y161.098 E20.92803
G1 X105.633 Y160.666 E20.94672
G1 X105.393 Y160.329 E20.96089
G1 X105.044 Y159.815 E20.98217
G1 X104.116 Y158.42 E21.03957
G1 X102.585 Y156.188 E21.13229
G1 X101.11 Y154.164 E21.21809
G1 X99.579 Y152.182 E21.30389
G1 X97.962 Y150.209 E21.39128
G1 X96.309 Y148.304 E21.47768
G1 X94.594 Y146.435 E21.56458
G1 X92.842 Y144.63 E21.65076
G1 X91.047 Y142.885 E21.73652
G1 X88.577 Y140.634 E21.851
G1 X87.856 Y139.999 E21.88392
G1 X87.192 Y139.361 E21.91546
G1 X86.586 Y138.668 E21.947
G1 X86.043 Y137.925 E21.97853
G1 X85.566 Y137.137 E22.01008
G1 X85.159 Y136.311 E22.04163
G1 X84.825 Y135.453 E22.07317
G1 X84.567 Y134.57 E22.10469
G1 X84.387 Y133.667 E22.13623
G1 X84.267 Y132.37 E22.18085
G1 X84.257 Y132.045 E22.19199
G1 X84.252 Y131.719 E22.20316
G1 X84.253 Y128.339 E22.31895
G1 X84.262 Y127.674 E22.34174
G1 X84.314 Y126.754 E22.3733
G1 X84.446 Y125.843 E22.40484
G1 X84.657 Y124.947 E22.43637
G1 X84.944 Y124.072 E22.46792
G1 X85.307 Y123.226 E22.49946
G1 X85.741 Y122.414 E22.531
G1 X86.244 Y121.643 E22.56254
G1 X86.813 Y120.919 E22.59408
G1 X87.441 Y120.247 E22.62559
G1 X88.126 Y119.631 E22.65715
G1 X88.862 Y119.078 E22.68869
G0 F6000 X89.246 Y119.302
G1 F1200 X90.021 Y118.839 E22.71962
G1 X90.834 Y118.446 E22.75055
G1 X91.679 Y118.126 E22.78151
G1 X92.548 Y117.883 E22.81242
G1 X93.436 Y117.717 E22.84337
G1 X94.575 Y117.621 E22.88252
G1 X94.896 Y117.612 E22.89352
G1 X95.182 Y117.608 E22.90332
G1 X108.364 Y117.608 E23.35491
G1 X109.214 Y117.619 E23.38403
G1 X110.116 Y117.672 E23.41499
G1 X111.009 Y117.804 E23.44591
G1 X111.888 Y118.015 E23.47688
G1 X113.143 Y118.466 E23.52257
G1 X113.937 Y118.812 E23.55224
G1 X116.326 Y119.81 E23.64093
G1 X118.717 Y120.733 E23.72874
G1 X121.104 Y121.573 E23.81542
G1 X123.498 Y122.343 E23.90158
G1 X125.954 Y123.058 E23.98921
G1 X128.421 Y123.699 E24.07653
G1 X130.871 Y124.264 E24.16266
G1 X133.38 Y124.768 E24.25033
G1 X135.885 Y125.196 E24.33739
G1 X138.384 Y125.552 E24.42387
G1 X140.924 Y125.84 E24.51144
G1 X143.426 Y126.053 E24.59746
G1 X145.987 Y126.198 E24.68534
G1 X148.521 Y126.27 E24.77218
G1 X151.054 Y126.27 E24.85896
G1 X153.588 Y126.198 E24.9458
G1 X156.128 Y126.054 E25.03296
G1 X158.676 Y125.838 E25.12056
G1 X161.191 Y125.553 E25.20727
G1 X163.709 Y125.194 E25.2944
G1 X166.198 Y124.767 E25.38092
G1 X168.669 Y124.273 E25.46724
G1 X171.189 Y123.693 E25.55583
G1 X173.623 Y123.059 E25.642
G1 X176.049 Y122.354 E25.72854
G1 X178.493 Y121.569 E25.81648
G1 X180.866 Y120.731 E25.9027
G1 X183.246 Y119.813 E25.99009
G1 X185.628 Y118.819 E26.07851
